(ENCODER)
(T1  D=0.792 CR=0. - ZMIN=-1.54 - FLAT END MILL)
G0 G90 G94 G17
G21
G53 Z0.

(INSIDE)
M5
M9
T1
S12000 M3
G4 P4.
G55
M9
G0 X22.885 Y22.656
Z15.
Z1.079
G1 Z-0.071 F356.
X22.881 Y22.651 Z-0.101
X22.87 Y22.638 Z-0.127
X22.853 Y22.618 Z-0.144
X22.834 Y22.595 Z-0.15
X22.508 Y22.212
G3 X22.512 Y22.163 I0.026 J-0.022
G1 X22.574 Y22.11
X22.576 Y22.109
X22.804 Y21.957
X22.806 Y21.956
X23.048 Y21.833
X23.051 Y21.832
X23.309 Y21.737
X23.577 Y21.673
X23.579
X23.851 Y21.641
X23.853
X24.126
X24.128
X24.4 Y21.673
X24.402
X24.67 Y21.737
X24.929 Y21.832
X24.931 Y21.833
X25.174 Y21.956
X25.175 Y21.957
X25.403 Y22.109
X25.405 Y22.11
X25.492 Y22.184
X25.493 Y22.186
Y25.793
X25.492 Y25.795
X25.405 Y25.869
X25.403 Y25.871
X25.175 Y26.022
X25.174 Y26.023
X24.931 Y26.146
X24.929 Y26.147
X24.671 Y26.242
X24.67
X24.402 Y26.306
X24.4 Y26.307
X24.128 Y26.339
X24.126
X23.853
X23.851
X23.579 Y26.307
X23.577 Y26.306
X23.309 Y26.242
X23.306 Y26.241
X23.051 Y26.147
X23.048 Y26.146
X22.806 Y26.023
X22.804 Y26.022
X22.576 Y25.871
X22.574 Y25.869
X22.487 Y25.795
X22.486 Y25.793
Y22.186
X22.487 Y22.184
X22.512 Y22.163
X22.535 Y22.143
X22.571 Y22.113
X22.574 Y22.11
X22.577 Y22.108
X22.583 Y22.104
X22.609 Y22.087
X22.712 Y22.018 Z-0.151
X22.764 Y21.984 Z-0.152
X22.802 Y21.958
X22.806 Y21.956
X22.816 Y21.951
X22.926 Y21.895 Z-0.154
X23.044 Y21.835 Z-0.156
X23.047 Y21.834
X23.051 Y21.832
X23.065 Y21.827
X23.094 Y21.816 Z-0.157
X23.152 Y21.795 Z-0.158
X23.268 Y21.752 Z-0.161
X23.308 Y21.737 Z-0.162
X23.312 Y21.736
X23.327 Y21.733 Z-0.163
X23.387 Y21.718 Z-0.164
X23.508 Y21.69 Z-0.168
X23.575 Y21.673 Z-0.17
X23.579
X23.598 Y21.67
X23.629 Y21.667 Z-0.171
X23.752 Y21.652 Z-0.175
X23.813 Y21.645 Z-0.178
X23.848 Y21.641 Z-0.179
X23.852
X24.126 Z-0.189
X24.13
X24.184 Y21.647 Z-0.191
X24.245 Y21.654 Z-0.193
X24.399 Y21.673 Z-0.198
X24.403
X24.429 Y21.679 Z-0.199
X24.489 Y21.694 Z-0.201
X24.67 Y21.737 Z-0.208
X24.674 Y21.738
X24.928 Y21.832 Z-0.217
X24.931 Y21.833 Z-0.218
X25.173 Y21.956 Z-0.227
X25.176 Y21.958
X25.282 Y22.028 Z-0.232
X25.405 Y22.11 Z-0.237
X25.408 Y22.112
X25.481 Y22.175 Z-0.24
X25.491 Y22.183 Z-0.241
X25.493 Y22.186
Y22.203
Y22.233 Z-0.242
Y22.293 Z-0.244
Y23.036 Z-0.27
Y23.159 Z-0.275
Y23.283 Z-0.279
Y23.407 Z-0.282
Y23.531 Z-0.286
Y23.654 Z-0.289
Y23.778 Z-0.292
Y23.902 Z-0.294
Y24.026 Z-0.296
Y24.149 Z-0.298
Y24.273 Z-0.299
Y24.397 Z-0.3
Y24.458
Y24.505
Y24.52
Y25.793
X25.492 Y25.795
X25.405 Y25.869
X25.403 Y25.871
X25.175 Y26.022
X25.174 Y26.023
X24.931 Y26.146
X24.929 Y26.147
X24.671 Y26.242
X24.67
X24.402 Y26.306
X24.4 Y26.307
X24.128 Y26.339
X24.126
X23.853
X23.851
X23.579 Y26.307
X23.577 Y26.306
X23.309 Y26.242
X23.306 Y26.241
X23.051 Y26.147
X23.048 Y26.146
X22.806 Y26.023
X22.804 Y26.022
X22.576 Y25.871
X22.574 Y25.869
X22.487 Y25.795
X22.486 Y25.793
Y22.186
X22.487 Y22.184
X22.574 Y22.11
X22.576 Y22.109
X22.804 Y21.957
X22.806 Y21.956
X23.048 Y21.833
X23.051 Y21.832
X23.309 Y21.737
X23.577 Y21.673
X23.579
X23.851 Y21.641
X23.853
X24.126
X24.128
X24.4 Y21.673
X24.402
X24.67 Y21.737
X24.929 Y21.832
X24.931 Y21.833
X25.174 Y21.956
X25.175 Y21.957
X25.403 Y22.109
X25.405 Y22.11
X25.492 Y22.184
X25.493 Y22.186
Y24.52
Y24.551
Y24.582
Y24.644
Y24.768 Z-0.301
Y24.891 Z-0.302
Y25.015 Z-0.304
Y25.139 Z-0.306
Y25.263 Z-0.308
Y25.386 Z-0.311
Y25.51 Z-0.314
Y25.634 Z-0.318
Y25.794 Z-0.323
X25.49 Y25.797
X25.484 Y25.802
X25.472 Y25.813
X25.415 Y25.861 Z-0.326
X25.406 Y25.868
X25.403 Y25.871 Z-0.327
X25.377 Y25.888 Z-0.328
X25.223 Y25.991 Z-0.334
X25.178 Y26.021 Z-0.336
X25.174 Y26.023
X25.171 Y26.024
X25.116 Y26.052 Z-0.338
X24.929 Y26.147 Z-0.346
X24.926 Y26.148
X24.777 Y26.203 Z-0.351
X24.672 Y26.242 Z-0.355
X24.668 Y26.243
X24.66 Y26.244 Z-0.356
X24.405 Y26.306 Z-0.365
X24.401
X24.359 Y26.311 Z-0.366
X24.128 Y26.339 Z-0.375
X24.124
X24.051 Z-0.377
X23.854 Z-0.384
X23.85 Y26.338
X23.804 Y26.333 Z-0.386
X23.581 Y26.307 Z-0.394
X23.577 Y26.306
X23.558 Y26.302
X23.31 Y26.242 Z-0.403
X23.306 Y26.241 Z-0.404
X23.259 Y26.224 Z-0.405
X23.201 Y26.202 Z-0.407
X23.052 Y26.148 Z-0.413
X23.049 Y26.146
X23.028 Y26.136 Z-0.414
X22.973 Y26.108 Z-0.416
X22.804 Y26.022 Z-0.423
X22.781 Y26.007 Z-0.424
X22.756 Y25.99 Z-0.425
X22.653 Y25.921 Z-0.429
X22.601 Y25.887 Z-0.431
X22.575 Y25.87
X22.572 Y25.868 Z-0.432
X22.507 Y25.812 Z-0.434
X22.488 Y25.796 Z-0.435
X22.486 Y25.793
Y25.788
Y25.757 Z-0.436
Y25.633 Z-0.439
Y25.509 Z-0.442
Y25.385 Z-0.444
Y25.262 Z-0.446
Y25.138 Z-0.448
Y25.014 Z-0.449
Y24.89 Z-0.45
Y24.83
Y24.785
Y24.771
Y22.186
X22.487 Y22.184
X22.574 Y22.11
X22.576 Y22.109
X22.804 Y21.957
X22.806 Y21.956
X23.048 Y21.833
X23.051 Y21.832
X23.309 Y21.737
X23.577 Y21.673
X23.579
X23.851 Y21.641
X23.853
X24.126
X24.128
X24.4 Y21.673
X24.402
X24.67 Y21.737
X24.929 Y21.832
X24.931 Y21.833
X25.174 Y21.956
X25.175 Y21.957
X25.403 Y22.109
X25.405 Y22.11
X25.492 Y22.184
X25.493 Y22.186
Y24.52
Y25.793
X25.492 Y25.795
X25.405 Y25.869
X25.403 Y25.871
X25.175 Y26.022
X25.174 Y26.023
X24.931 Y26.146
X24.929 Y26.147
X24.671 Y26.242
X24.67
X24.402 Y26.306
X24.4 Y26.307
X24.128 Y26.339
X24.126
X23.853
X23.851
X23.579 Y26.307
X23.577 Y26.306
X23.309 Y26.242
X23.306 Y26.241
X23.051 Y26.147
X23.048 Y26.146
X22.806 Y26.023
X22.804 Y26.022
X22.576 Y25.871
X22.574 Y25.869
X22.487 Y25.795
X22.486 Y25.793
Y24.771
Y24.74
Y24.709
Y24.647
Y24.523 Z-0.451
Y24.399 Z-0.452
Y24.276 Z-0.454
Y24.152 Z-0.456
Y24.028 Z-0.458
Y23.904 Z-0.461
Y23.781 Z-0.464
Y23.657 Z-0.468
Y23.533 Z-0.471
Y23.409 Z-0.475
Y23.286 Z-0.48
Y22.235 Z-0.516
Y22.205 Z-0.517
Y22.189 Z-0.518
Y22.184
X22.49 Y22.182
X22.496 Y22.176
X22.573 Y22.111 Z-0.522
X22.576 Y22.109
X22.695 Y22.03 Z-0.527
X22.801 Y21.959 Z-0.532
X22.804 Y21.957
X23.049 Y21.833 Z-0.541
X23.053 Y21.831
X23.307 Y21.738 Z-0.551
X23.311 Y21.737
X23.487 Y21.694 Z-0.557
X23.574 Y21.674 Z-0.56
X23.578 Y21.673 Z-0.561
X23.608 Y21.669 Z-0.562
X23.731 Y21.655 Z-0.566
X23.793 Y21.648 Z-0.568
X23.85 Y21.641 Z-0.57
X23.854
X23.978 Z-0.575
X24.102 Z-0.579
X24.125
X24.129
X24.163 Y21.645 Z-0.58
X24.225 Y21.652 Z-0.582
X24.348 Y21.667 Z-0.586
X24.401 Y21.673 Z-0.587
X24.405 Y21.674
X24.409 Y21.675
X24.469 Y21.689 Z-0.589
X24.59 Y21.718 Z-0.592
X24.65 Y21.732 Z-0.593
X24.668 Y21.737
X24.672 Y21.738
X24.708 Y21.751 Z-0.594
X24.825 Y21.794 Z-0.596
X24.883 Y21.815 Z-0.597
X24.926 Y21.831 Z-0.598
X24.93 Y21.833
X24.94 Y21.838
X25.051 Y21.894 Z-0.599
X25.161 Y21.95 Z-0.6
X25.175 Y21.957
X25.178 Y21.959
X25.187 Y21.965
X25.213 Y21.982
X25.251 Y22.008
X25.264 Y22.016
X25.403 Y22.109
X25.405 Y22.11
X25.492 Y22.184
X25.493 Y22.186
Y25.793
X25.492 Y25.795
X25.405 Y25.869
X25.403 Y25.871
X25.175 Y26.022
X25.174 Y26.023
X24.931 Y26.146
X24.929 Y26.147
X24.671 Y26.242
X24.67
X24.402 Y26.306
X24.4 Y26.307
X24.128 Y26.339
X24.126
X23.853
X23.851
X23.579 Y26.307
X23.577 Y26.306
X23.309 Y26.242
X23.306 Y26.241
X23.051 Y26.147
X23.048 Y26.146
X22.806 Y26.023
X22.804 Y26.022
X22.576 Y25.871
X22.574 Y25.869
X22.487 Y25.795
X22.486 Y25.793
Y22.186
X22.487 Y22.184
X22.574 Y22.11
X22.576 Y22.109
X22.804 Y21.957
X22.806 Y21.956
X23.048 Y21.833
X23.051 Y21.832
X23.309 Y21.737
X23.577 Y21.673
X23.579
X23.851 Y21.641
X23.853
X24.126
X24.128
X24.4 Y21.673
X24.402
X24.67 Y21.737
X24.929 Y21.832
X24.931 Y21.833
X25.174 Y21.956
X25.175 Y21.957
X25.264 Y22.016
X25.29 Y22.033
X25.316 Y22.05
X25.367 Y22.085
X25.403 Y22.108
X25.406 Y22.11
X25.418 Y22.12 Z-0.601
X25.465 Y22.161
X25.492 Y22.184
X25.493 Y22.188
Y22.212 Z-0.602
Y22.271
Y22.395 Z-0.604
Y22.519 Z-0.606
Y22.642 Z-0.608
Y22.766 Z-0.611
Y22.89 Z-0.614
Y23.014 Z-0.618
Y23.137 Z-0.621
Y23.261 Z-0.625
Y23.385 Z-0.63
Y25.736 Z-0.712
Y25.782 Z-0.713
Y25.79 Z-0.714
Y25.795
X25.49 Y25.797
X25.443 Y25.837 Z-0.716
X25.408 Y25.867 Z-0.717
X25.405 Y25.869 Z-0.718
X25.395 Y25.876
X25.241 Y25.979 Z-0.724
X25.176 Y26.021 Z-0.727
X25.173 Y26.023
X25.135 Y26.043 Z-0.728
X25.024 Y26.099 Z-0.732
X24.969 Y26.127 Z-0.734
X24.931 Y26.146 Z-0.735
X24.928 Y26.147
X24.913 Y26.153 Z-0.736
X24.797 Y26.195 Z-0.739
X24.674 Y26.241 Z-0.742
X24.67 Y26.242
X24.666 Y26.243
X24.651 Y26.247
X24.621 Y26.254 Z-0.743
X24.561 Y26.268 Z-0.744
X24.441 Y26.297 Z-0.746
X24.403 Y26.306 Z-0.747
X24.399 Y26.307
X24.38 Y26.309
X24.319 Y26.316 Z-0.748
X24.196 Y26.331 Z-0.749
X24.13 Y26.338
X24.127 Y26.339
X24.103 Z-0.75
X24.072
X23.943
X23.853
X23.851
X23.579 Y26.307
X23.577 Y26.306
X23.309 Y26.242
X23.306 Y26.241
X23.051 Y26.147
X23.048 Y26.146
X22.806 Y26.023
X22.804 Y26.022
X22.576 Y25.871
X22.574 Y25.869
X22.487 Y25.795
X22.486 Y25.793
Y22.186
X22.487 Y22.184
X22.574 Y22.11
X22.576 Y22.109
X22.804 Y21.957
X22.806 Y21.956
X23.048 Y21.833
X23.051 Y21.832
X23.309 Y21.737
X23.577 Y21.673
X23.579
X23.851 Y21.641
X23.853
X24.126
X24.128
X24.4 Y21.673
X24.402
X24.67 Y21.737
X24.929 Y21.832
X24.931 Y21.833
X25.174 Y21.956
X25.175 Y21.957
X25.403 Y22.109
X25.405 Y22.11
X25.492 Y22.184
X25.493 Y22.186
Y25.793
X25.492 Y25.795
X25.405 Y25.869
X25.403 Y25.871
X25.175 Y26.022
X25.174 Y26.023
X24.931 Y26.146
X24.929 Y26.147
X24.671 Y26.242
X24.67
X24.402 Y26.306
X24.4 Y26.307
X24.128 Y26.339
X24.126
X23.943
X23.912
X23.866
X23.854
X23.85 Y26.338
X23.82 Y26.335
X23.697 Y26.32 Z-0.751
X23.635 Y26.313 Z-0.752
X23.589 Y26.308
X23.578 Y26.306
X23.574 Y26.305
X23.453 Y26.277 Z-0.754
X23.333 Y26.248 Z-0.756
X23.311 Y26.242
X23.307 Y26.241
X23.274 Y26.229 Z-0.757
X23.216 Y26.208 Z-0.758
X23.1 Y26.165 Z-0.761
X23.053 Y26.148 Z-0.762
X23.049 Y26.147
X23.042 Y26.143 Z-0.763
X22.987 Y26.115 Z-0.764
X22.877 Y26.059 Z-0.768
X22.804 Y26.022 Z-0.77
X22.801 Y26.02
X22.769 Y25.999 Z-0.771
X22.666 Y25.93 Z-0.775
X22.614 Y25.896 Z-0.778
X22.576 Y25.87 Z-0.779
X22.573 Y25.868
X22.564 Y25.86 Z-0.78
X22.519 Y25.822 Z-0.782
X22.492 Y25.799 Z-0.783
X22.489 Y25.797
X22.486 Y25.793
Y25.789
Y25.773 Z-0.784
Y23.298 Z-0.87
Y23.174 Z-0.875
Y23.05 Z-0.879
Y22.926 Z-0.882
Y22.803 Z-0.886
Y22.679 Z-0.889
Y22.555 Z-0.892
Y22.431 Z-0.894
Y22.308 Z-0.896
Y22.246 Z-0.897
Y22.199 Z-0.898
Y22.188
X22.487 Y22.184
X22.51 Y22.164
X22.534 Y22.144
X22.572 Y22.111 Z-0.899
X22.575 Y22.109
X22.582 Y22.105
X22.685 Y22.036 Z-0.9
X22.792 Y21.965
X22.804 Y21.957
X22.806 Y21.956
X23.048 Y21.833
X23.051 Y21.832
X23.309 Y21.737
X23.577 Y21.673
X23.579
X23.851 Y21.641
X23.853
X24.126
X24.128
X24.4 Y21.673
X24.402
X24.67 Y21.737
X24.929 Y21.832
X24.931 Y21.833
X25.174 Y21.956
X25.175 Y21.957
X25.403 Y22.109
X25.405 Y22.11
X25.492 Y22.184
X25.493 Y22.186
Y25.793
X25.492 Y25.795
X25.405 Y25.869
X25.403 Y25.871
X25.175 Y26.022
X25.174 Y26.023
X24.931 Y26.146
X24.929 Y26.147
X24.671 Y26.242
X24.67
X24.402 Y26.306
X24.4 Y26.307
X24.128 Y26.339
X24.126
X23.943
X23.853
X23.851
X23.579 Y26.307
X23.577 Y26.306
X23.309 Y26.242
X23.306 Y26.241
X23.051 Y26.147
X23.048 Y26.146
X22.806 Y26.023
X22.804 Y26.022
X22.576 Y25.871
X22.574 Y25.869
X22.487 Y25.795
X22.486 Y25.793
Y22.186
X22.487 Y22.184
X22.574 Y22.11
X22.576 Y22.109
X22.792 Y21.965
X22.802 Y21.959
X22.805 Y21.957
X22.819 Y21.95
X22.846 Y21.936
X22.902 Y21.908
X23.012 Y21.852 Z-0.901
X23.05 Y21.832
X23.053 Y21.831
X23.068 Y21.826 Z-0.902
X23.126 Y21.804
X23.242 Y21.762 Z-0.904
X23.308 Y21.738 Z-0.905
X23.311 Y21.737
X23.33 Y21.732
X23.36 Y21.725 Z-0.906
X23.481 Y21.696 Z-0.908
X23.541 Y21.682 Z-0.91
X23.575 Y21.674
X23.578 Y21.673 Z-0.911
X23.601 Y21.67
X23.724 Y21.656 Z-0.914
X23.851 Y21.641 Z-0.918
X23.855
X23.878 Z-0.919
X23.909 Z-0.92
X23.971 Z-0.921
X24.095 Z-0.925
X24.126 Z-0.927
X24.129
X24.156 Y21.644 Z-0.928
X24.341 Y21.666 Z-0.934
X24.398 Y21.672 Z-0.936
X24.402 Y21.673
X24.432 Y21.68 Z-0.937
X24.462 Y21.687 Z-0.938
X24.669 Y21.737 Z-0.946
X24.673 Y21.738
X24.702 Y21.749 Z-0.947
X24.927 Y21.831 Z-0.955
X24.93 Y21.833 Z-0.956
X24.934 Y21.835
X25.172 Y21.955 Z-0.965
X25.175 Y21.957
X25.208 Y21.979 Z-0.966
X25.404 Y22.109 Z-0.975
X25.407 Y22.112
X25.46 Y22.157 Z-0.977
X25.484 Y22.177 Z-0.978
X25.49 Y22.182
X25.493 Y22.185 Z-0.979
Y22.19
Y22.206
Y22.265 Z-0.981
Y23.379 Z-1.02
Y23.503 Z-1.024
Y23.626 Z-1.028
Y23.75 Z-1.032
Y23.874 Z-1.036
Y23.998 Z-1.039
Y24.121 Z-1.042
Y24.245 Z-1.044
Y24.369 Z-1.046
Y24.493 Z-1.048
Y24.616 Z-1.049
Y24.74 Z-1.05
Y24.869
Y25.793
X25.492 Y25.795
X25.405 Y25.869
X25.403 Y25.871
X25.175 Y26.022
X25.174 Y26.023
X24.931 Y26.146
X24.929 Y26.147
X24.671 Y26.242
X24.67
X24.402 Y26.306
X24.4 Y26.307
X24.128 Y26.339
X24.126
X23.853
X23.851
X23.579 Y26.307
X23.577 Y26.306
X23.309 Y26.242
X23.306 Y26.241
X23.051 Y26.147
X23.048 Y26.146
X22.806 Y26.023
X22.804 Y26.022
X22.576 Y25.871
X22.574 Y25.869
X22.487 Y25.795
X22.486 Y25.793
Y22.186
X22.487 Y22.184
X22.574 Y22.11
X22.576 Y22.109
X22.792 Y21.965
X22.804 Y21.957
X22.806 Y21.956
X23.048 Y21.833
X23.051 Y21.832
X23.309 Y21.737
X23.577 Y21.673
X23.579
X23.851 Y21.641
X23.853
X24.126
X24.128
X24.4 Y21.673
X24.402
X24.67 Y21.737
X24.929 Y21.832
X24.931 Y21.833
X25.174 Y21.956
X25.175 Y21.957
X25.403 Y22.109
X25.405 Y22.11
X25.492 Y22.184
X25.493 Y22.186
Y24.869
Y24.9
Y24.931
Y24.993
Y25.117 Z-1.051
Y25.24 Z-1.052
Y25.364 Z-1.054
Y25.488 Z-1.056
Y25.612 Z-1.058
Y25.735 Z-1.061
Y25.793 Z-1.063
X25.491 Y25.797
X25.467 Y25.816
X25.42 Y25.856 Z-1.065
X25.406 Y25.869 Z-1.066
X25.402 Y25.871
X25.396 Y25.875
X25.344 Y25.91 Z-1.068
X25.241 Y25.978 Z-1.071
X25.177 Y26.021 Z-1.074
X25.174 Y26.023
X25.163 Y26.028
X25.136 Y26.042 Z-1.075
X24.97 Y26.126 Z-1.082
X24.932 Y26.145 Z-1.083
X24.929 Y26.147 Z-1.084
X24.914 Y26.152
X24.671 Y26.242 Z-1.093
X24.667 Y26.243
X24.622 Y26.254 Z-1.095
X24.562 Y26.268 Z-1.097
X24.404 Y26.306 Z-1.103
X24.4
X24.381 Y26.309
X24.197 Y26.33 Z-1.11
X24.128 Y26.339 Z-1.112
X24.073 Z-1.114
X23.853 Z-1.122
X23.849 Y26.338
X23.58 Y26.307 Z-1.132
X23.576 Y26.306
X23.309 Y26.242 Z-1.141
X23.306 Y26.241
X23.052 Y26.148 Z-1.151
X23.048 Y26.146
X22.993 Y26.118 Z-1.153
X22.883 Y26.062 Z-1.157
X22.807 Y26.024 Z-1.16
X22.803 Y26.022 Z-1.161
X22.774 Y26.002 Z-1.162
X22.671 Y25.934 Z-1.166
X22.62 Y25.9 Z-1.168
X22.575 Y25.87 Z-1.17
X22.572 Y25.867
X22.569 Y25.865
X22.523 Y25.826 Z-1.173
X22.5 Y25.806 Z-1.174
X22.487 Y25.796
X22.486 Y25.792
Y25.779 Z-1.175
Y25.655 Z-1.179
Y25.532 Z-1.182
Y25.408 Z-1.186
Y25.284 Z-1.189
Y25.16 Z-1.192
Y25.037 Z-1.194
Y24.913 Z-1.196
Y24.789 Z-1.198
Y24.665 Z-1.199
Y24.542 Z-1.2
Y24.481
Y24.435
Y24.42
Y22.186
X22.487 Y22.184
X22.574 Y22.11
X22.576 Y22.109
X22.804 Y21.957
X22.806 Y21.956
X23.048 Y21.833
X23.051 Y21.832
X23.309 Y21.737
X23.577 Y21.673
X23.579
X23.851 Y21.641
X23.853
X24.126
X24.128
X24.4 Y21.673
X24.402
X24.67 Y21.737
X24.929 Y21.832
X24.931 Y21.833
X25.174 Y21.956
X25.175 Y21.957
X25.403 Y22.109
X25.405 Y22.11
X25.492 Y22.184
X25.493 Y22.186
Y24.869
Y25.793
X25.492 Y25.795
X25.405 Y25.869
X25.403 Y25.871
X25.175 Y26.022
X25.174 Y26.023
X24.931 Y26.146
X24.929 Y26.147
X24.671 Y26.242
X24.67
X24.402 Y26.306
X24.4 Y26.307
X24.128 Y26.339
X24.126
X23.853
X23.851
X23.579 Y26.307
X23.577 Y26.306
X23.309 Y26.242
X23.306 Y26.241
X23.051 Y26.147
X23.048 Y26.146
X22.806 Y26.023
X22.804 Y26.022
X22.576 Y25.871
X22.574 Y25.869
X22.487 Y25.795
X22.486 Y25.793
Y24.42
Y24.389
Y24.358
Y24.296
Y24.172 Z-1.201
Y24.048 Z-1.202
Y23.925 Z-1.204
Y23.801 Z-1.206
Y23.677 Z-1.208
Y23.553 Z-1.211
Y23.43 Z-1.214
Y23.306 Z-1.218
Y23.182 Z-1.221
Y23.058 Z-1.225
Y22.935 Z-1.23
Y22.188 Z-1.256
X22.487 Y22.184
X22.493 Y22.178
X22.505 Y22.168 Z-1.257
X22.563 Y22.119 Z-1.259
X22.572 Y22.112 Z-1.26
X22.575 Y22.109
X22.626 Y22.075 Z-1.262
X22.8 Y21.959 Z-1.269
X22.804 Y21.957
X22.807 Y21.956 Z-1.27
X23.028 Y21.844 Z-1.278
X23.048 Y21.833 Z-1.279
X23.052 Y21.832
X23.23 Y21.766 Z-1.286
X23.306 Y21.738 Z-1.289
X23.31 Y21.737
X23.347 Y21.728 Z-1.29
X23.577 Y21.673 Z-1.298
X23.581 Z-1.299
X23.588 Y21.672
X23.849 Y21.641 Z-1.308
X23.853
X23.896 Z-1.31
X23.958 Z-1.312
X24.081 Z-1.316
X24.124 Z-1.318
X24.128
X24.143 Y21.642
X24.328 Y21.664 Z-1.325
X24.4 Y21.673 Z-1.327
X24.404 Y21.674
X24.449 Y21.684 Z-1.329
X24.57 Y21.713 Z-1.332
X24.63 Y21.727 Z-1.334
X24.668 Y21.736 Z-1.335
X24.671 Y21.737
X24.689 Y21.744 Z-1.336
X24.806 Y21.787 Z-1.339
X24.929 Y21.832 Z-1.342
X24.936 Y21.836
X24.95 Y21.843
X24.977 Y21.857 Z-1.343
X25.032 Y21.885 Z-1.344
X25.143 Y21.941 Z-1.346
X25.174 Y21.956 Z-1.347
X25.177 Y21.958
X25.197 Y21.971
X25.248 Y22.005 Z-1.348
X25.351 Y22.074 Z-1.349
X25.403 Y22.108
X25.406 Y22.11
X25.426 Y22.128 Z-1.35
X25.45 Y22.148
X25.484 Y22.177
X25.49 Y22.182
X25.493 Y22.185
Y22.219
Y22.249
Y25.793
X25.492 Y25.795
X25.405 Y25.869
X25.403 Y25.871
X25.175 Y26.022
X25.174 Y26.023
X24.931 Y26.146
X24.929 Y26.147
X24.671 Y26.242
X24.67
X24.402 Y26.306
X24.4 Y26.307
X24.128 Y26.339
X24.126
X23.853
X23.851
X23.579 Y26.307
X23.577 Y26.306
X23.309 Y26.242
X23.306 Y26.241
X23.051 Y26.147
X23.048 Y26.146
X22.806 Y26.023
X22.804 Y26.022
X22.576 Y25.871
X22.574 Y25.869
X22.487 Y25.795
X22.486 Y25.793
Y22.186
X22.487 Y22.184
X22.574 Y22.11
X22.576 Y22.109
X22.804 Y21.957
X22.806 Y21.956
X23.048 Y21.833
X23.051 Y21.832
X23.309 Y21.737
X23.577 Y21.673
X23.579
X23.851 Y21.641
X23.853
X24.126
X24.128
X24.4 Y21.673
X24.402
X24.67 Y21.737
X24.929 Y21.832
X24.931 Y21.833
X25.174 Y21.956
X25.175 Y21.957
X25.403 Y22.109
X25.405 Y22.11
X25.492 Y22.184
X25.493 Y22.186
Y22.249
Y22.28
Y22.311
Y22.373
Y22.497 Z-1.351
Y22.621 Z-1.352
Y22.744 Z-1.354
Y22.868 Z-1.356
Y22.992 Z-1.358
Y23.116 Z-1.361
Y23.239 Z-1.364
Y23.363 Z-1.368
Y23.487 Z-1.371
Y23.611 Z-1.375
Y23.734 Z-1.38
Y25.714 Z-1.449
Y25.774 Z-1.451
Y25.79
Y25.795
X25.49 Y25.797 Z-1.452
X25.483 Y25.803
X25.46 Y25.823 Z-1.453
X25.407 Y25.868 Z-1.455
X25.404 Y25.87
X25.362 Y25.898 Z-1.457
X25.259 Y25.967 Z-1.461
X25.207 Y26.001 Z-1.464
X25.175 Y26.022 Z-1.465
X25.154 Y26.033 Z-1.466
X25.044 Y26.089 Z-1.47
X24.93 Y26.146 Z-1.474
X24.927 Y26.148 Z-1.475
X24.905 Y26.156
X24.876 Y26.167 Z-1.476
X24.818 Y26.188 Z-1.478
X24.702 Y26.231 Z-1.482
X24.673 Y26.241 Z-1.483
X24.669 Y26.242
X24.643 Y26.249 Z-1.484
X24.582 Y26.263 Z-1.486
X24.462 Y26.292 Z-1.489
X24.409 Y26.304 Z-1.49
X24.402 Y26.306
X24.398 Y26.307
X24.371 Y26.31 Z-1.491
X24.34 Y26.314 Z-1.492
X24.218 Y26.328 Z-1.494
X24.156 Y26.335 Z-1.495
X24.129 Y26.338 Z-1.496
X24.125 Y26.339
X24.094
X23.971 Z-1.498
X23.909
X23.862 Z-1.499
X23.855
X23.851
X23.847 Y26.338
X23.724 Y26.324 Z-1.5
X23.596 Y26.309
X23.579 Y26.307
X23.577 Y26.306
X23.309 Y26.242
X23.306 Y26.241
X23.051 Y26.147
X23.048 Y26.146
X22.806 Y26.023
X22.804 Y26.022
X22.576 Y25.871
X22.574 Y25.869
X22.487 Y25.795
X22.486 Y25.793
Y22.186
X22.487 Y22.184
X22.574 Y22.11
X22.576 Y22.109
X22.804 Y21.957
X22.806 Y21.956
X23.048 Y21.833
X23.051 Y21.832
X23.309 Y21.737
X23.577 Y21.673
X23.579
X23.851 Y21.641
X23.853
X24.126
X24.128
X24.4 Y21.673
X24.402
X24.67 Y21.737
X24.929 Y21.832
X24.931 Y21.833
X25.174 Y21.956
X25.175 Y21.957
X25.403 Y22.109
X25.405 Y22.11
X25.492 Y22.184
X25.493 Y22.186
Y25.793
X25.492 Y25.795
X25.405 Y25.869
X25.403 Y25.871
X25.175 Y26.022
X25.174 Y26.023
X24.931 Y26.146
X24.929 Y26.147
X24.671 Y26.242
X24.67
X24.402 Y26.306
X24.4 Y26.307
X24.128 Y26.339
X24.126
X23.853
X23.851
X23.596 Y26.309
X23.578 Y26.306
X23.567 Y26.304
X23.537 Y26.297
X23.479 Y26.283 Z-1.501
X23.363 Y26.255 Z-1.502
X23.334 Y26.248 Z-1.503
X23.312 Y26.243
X23.308 Y26.242
X23.305 Y26.24
X23.248 Y26.22 Z-1.505
X23.136 Y26.179 Z-1.508
X23.08 Y26.158 Z-1.51
X23.052 Y26.148 Z-1.511
X23.048 Y26.146
X23.025 Y26.134 Z-1.512
X22.918 Y26.08 Z-1.516
X22.805 Y26.022 Z-1.52
X22.801 Y26.02
X22.761 Y25.993 Z-1.522
X22.711 Y25.96 Z-1.524
X22.611 Y25.894 Z-1.528
X22.577 Y25.871 Z-1.53
X22.574 Y25.869
X22.562 Y25.859
X22.517 Y25.821 Z-1.532
X22.491 Y25.799 Z-1.533
X22.488 Y25.796
X22.486 Y25.792
Y25.788
Y25.772 Z-1.534
Y25.715 Z-1.535
Y25.595 Z-1.538
Y25.475 Z-1.539
Y25.356 Z-1.54
Y25.351
Y22.186
X22.487 Y22.184
X22.574 Y22.11
X22.576 Y22.109
X22.804 Y21.957
X22.806 Y21.956
X23.048 Y21.833
X23.051 Y21.832
X23.309 Y21.737
X23.577 Y21.673
X23.579
X23.851 Y21.641
X23.853
X24.126
X24.128
X24.4 Y21.673
X24.402
X24.67 Y21.737
X24.929 Y21.832
X24.931 Y21.833
X25.174 Y21.956
X25.175 Y21.957
X25.403 Y22.109
X25.405 Y22.11
X25.492 Y22.184
X25.493 Y22.186
Y25.793
X25.492 Y25.795
X25.405 Y25.869
X25.403 Y25.871
X25.175 Y26.022
X25.174 Y26.023
X24.931 Y26.146
X24.929 Y26.147
X24.671 Y26.242
X24.67
X24.402 Y26.306
X24.4 Y26.307
X24.128 Y26.339
X24.126
X23.853
X23.851
X23.596 Y26.309
X23.579 Y26.307
X23.577 Y26.306
X23.309 Y26.242
X23.306 Y26.241
X23.051 Y26.147
X23.048 Y26.146
X22.806 Y26.023
X22.804 Y26.022
X22.576 Y25.871
X22.574 Y25.869
X22.487 Y25.795
X22.486 Y25.793
Y25.351
G3 X22.566 Y25.271 I0.079 J0.
G0 Z15.

(OUTSIDE)
G55
M9
G0 X11.233 Y23.067
Z15.
Z1.079
G1 Z-0.071 F356.
X11.239 Y23.068 Z-0.101
X11.256 Y23.069 Z-0.127
X11.282 Y23.071 Z-0.144
X11.312 Y23.073 Z-0.15
X11.551 Y23.089
G3 X11.625 Y23.174 I-0.005 J0.079
G1 X11.605 Y23.458
X11.604 Y23.494
Y23.511
X11.606 Y23.529
X11.608 Y23.547
X11.611 Y23.564
X11.615 Y23.582
X11.619 Y23.6
X11.625 Y23.617
X11.635 Y23.644
X11.647 Y23.671
X11.657 Y23.688
X11.668 Y23.706
X11.68 Y23.724
X11.694 Y23.742
X11.695 Y23.743
X11.712 Y23.762
X11.731 Y23.781
X11.749 Y23.796
X11.766 Y23.81
X11.77 Y23.812
X11.787 Y23.824
X11.803 Y23.834
X11.82 Y23.843
X11.837 Y23.851
X11.855 Y23.859
X11.873 Y23.865
X11.89 Y23.871
X11.908 Y23.875
X11.93 Y23.88
X11.952 Y23.883
X11.979 Y23.886
X12.05
X18.95
X18.952
X19.012 Y23.892
X19.014 Y23.893
X19.036 Y23.901
X19.038 Y23.902
X19.059 Y23.917
X19.06 Y23.918
X19.075 Y23.938
X19.076 Y23.939
X19.086 Y23.963
Y23.965
X19.09 Y23.99
X19.086 Y24.014
Y24.016
X19.076 Y24.04
X19.075 Y24.042
X19.06 Y24.061
X19.059 Y24.062
X19.038 Y24.077
X19.036 Y24.078
X19.014 Y24.087
X19.012
X18.952 Y24.093
X18.95
X12.05
X11.979 Y24.094
X11.952 Y24.096
X11.93 Y24.099
X11.908 Y24.104
X11.89 Y24.108
X11.873 Y24.114
X11.855 Y24.121
X11.837 Y24.128
X11.82 Y24.136
X11.803 Y24.145
X11.787 Y24.155
X11.77 Y24.167
X11.766 Y24.169
X11.749 Y24.183
X11.731 Y24.198
X11.712 Y24.217
X11.695 Y24.236
X11.694 Y24.238
X11.68 Y24.255
X11.668 Y24.273
X11.657 Y24.291
X11.647 Y24.308
X11.635 Y24.335
X11.625 Y24.362
X11.619 Y24.379
X11.615 Y24.397
X11.611 Y24.415
X11.608 Y24.432
X11.606 Y24.45
X11.604 Y24.468
Y24.486
X11.605 Y24.521
X11.649 Y25.159
X11.657 Y25.23
X11.727 Y25.797
X11.737 Y25.867
X11.838 Y26.434
X11.851 Y26.505
X11.908 Y26.746
X11.984 Y27.072
X12.001 Y27.143
X12.022 Y27.214
X12.187 Y27.781
X12.191 Y27.794
X12.212 Y27.851
X12.404 Y28.397
X12.411 Y28.418
X12.441 Y28.489
X12.646 Y28.985
X12.676 Y29.056
X12.948 Y29.623
X12.971 Y29.668
X13.257 Y30.19
X13.297 Y30.261
X13.609 Y30.763
X13.651 Y30.828
X13.996 Y31.324
X14.034 Y31.374
X14.388 Y31.828
X14.438 Y31.89
X14.813 Y32.321
X14.87 Y32.386
X14.884 Y32.4
X14.902 Y32.416
X14.92 Y32.43
X14.937 Y32.443
X14.955 Y32.454
X14.96 Y32.457
X14.977 Y32.466
X14.993 Y32.474
X15.009 Y32.481
X15.026 Y32.488
X15.044 Y32.493
X15.061 Y32.498
X15.079 Y32.502
X15.097 Y32.506
X15.114 Y32.508
X15.132 Y32.51
X15.15
X15.168
X15.185
X15.203 Y32.508
X15.221 Y32.506
X15.238 Y32.502
X15.256 Y32.498
X15.274 Y32.493
X15.292 Y32.487
X15.309 Y32.481
X15.333 Y32.47
X15.357 Y32.457
X15.38 Y32.443
X15.397 Y32.431
X15.413 Y32.418
X15.446 Y32.386
X20.354 Y27.479
X20.356 Y27.477
X20.4 Y27.441
X20.402 Y27.44
X20.425 Y27.429
X20.427
X20.451 Y27.425
X20.454
X20.477 Y27.428
X20.48
X20.503 Y27.438
X20.505 Y27.439
X20.524 Y27.454
X20.526 Y27.456
X20.541 Y27.475
X20.542 Y27.477
X20.551 Y27.499
Y27.502
X20.554 Y27.526
Y27.528
X20.55 Y27.552
Y27.554
X20.54 Y27.577
X20.538 Y27.579
X20.502 Y27.623
X20.5 Y27.626
X15.593 Y32.533
X15.562 Y32.566
X15.548 Y32.582
X15.537 Y32.599
X15.522 Y32.623
X15.509 Y32.646
X15.499 Y32.67
X15.492 Y32.688
X15.486 Y32.705
X15.481 Y32.723
X15.477 Y32.741
X15.474 Y32.758
X15.471 Y32.776
X15.47 Y32.794
X15.469 Y32.812
Y32.829
X15.47 Y32.847
X15.471 Y32.865
X15.474 Y32.882
X15.477 Y32.9
X15.481 Y32.918
X15.486 Y32.936
X15.492 Y32.953
X15.498 Y32.97
X15.505 Y32.986
X15.513 Y33.003
X15.522 Y33.019
X15.525 Y33.024
X15.536 Y33.042
X15.549 Y33.06
X15.563 Y33.077
X15.579 Y33.095
X15.593 Y33.109
X15.658 Y33.166
X16.089 Y33.541
X16.151 Y33.591
X16.605 Y33.945
X16.656 Y33.983
X17.152 Y34.328
X17.216 Y34.371
X17.719 Y34.682
X17.789 Y34.723
X18.311 Y35.008
X18.356 Y35.031
X18.923 Y35.303
X18.994 Y35.333
X19.49 Y35.539
X19.561 Y35.568
X19.582 Y35.575
X20.128 Y35.767
X20.186 Y35.788
X20.199 Y35.792
X20.765 Y35.958
X20.836 Y35.978
X20.907 Y35.995
X21.403 Y36.111
X21.474 Y36.128
X21.545 Y36.141
X22.112 Y36.242
X22.183 Y36.253
X22.75 Y36.322
X22.82 Y36.33
X23.458 Y36.374
X23.494 Y36.375
X23.511
X23.529 Y36.373
X23.547 Y36.371
X23.564 Y36.368
X23.582 Y36.365
X23.6 Y36.36
X23.617 Y36.355
X23.644 Y36.344
X23.671 Y36.332
X23.688 Y36.322
X23.706 Y36.311
X23.724 Y36.299
X23.742 Y36.285
X23.743 Y36.284
X23.762 Y36.267
X23.781 Y36.248
X23.796 Y36.231
X23.81 Y36.213
X23.812 Y36.209
X23.824 Y36.193
X23.834 Y36.176
X23.843 Y36.159
X23.851 Y36.142
X23.859 Y36.124
X23.865 Y36.107
X23.871 Y36.089
X23.875 Y36.071
X23.88 Y36.049
X23.883 Y36.027
X23.886 Y36.
Y35.929
Y29.029
Y29.027
X23.892 Y28.967
X23.893 Y28.965
X23.901 Y28.943
X23.902 Y28.941
X23.917 Y28.921
X23.918 Y28.919
X23.938 Y28.904
X23.939 Y28.903
X23.963 Y28.893
X23.965
X23.99 Y28.889
X24.014 Y28.893
X24.016
X24.04 Y28.903
X24.042 Y28.904
X24.061 Y28.919
X24.062 Y28.921
X24.077 Y28.941
X24.078 Y28.943
X24.087 Y28.965
Y28.967
X24.093 Y29.027
Y29.029
Y35.929
X24.094 Y36.
X24.096 Y36.027
X24.099 Y36.049
X24.104 Y36.071
X24.108 Y36.089
X24.114 Y36.107
X24.121 Y36.124
X24.128 Y36.142
X24.136 Y36.159
X24.145 Y36.176
X24.155 Y36.193
X24.167 Y36.209
X24.169 Y36.213
X24.183 Y36.231
X24.198 Y36.248
X24.217 Y36.267
X24.236 Y36.284
X24.238 Y36.285
X24.255 Y36.299
X24.273 Y36.311
X24.291 Y36.322
X24.308 Y36.332
X24.335 Y36.344
X24.362 Y36.355
X24.379 Y36.36
X24.397 Y36.365
X24.415 Y36.368
X24.432 Y36.371
X24.45 Y36.373
X24.468 Y36.375
X24.486
X24.521 Y36.374
X25.159 Y36.33
X25.23 Y36.322
X25.797 Y36.253
X25.867 Y36.242
X26.434 Y36.141
X26.505 Y36.128
X26.746 Y36.071
X27.072 Y35.995
X27.143 Y35.978
X27.214 Y35.958
X27.781 Y35.792
X27.794 Y35.788
X27.851 Y35.767
X28.397 Y35.575
X28.418 Y35.568
X28.489 Y35.539
X28.985 Y35.333
X29.056 Y35.303
X29.623 Y35.031
X29.668 Y35.008
X30.19 Y34.723
X30.261 Y34.682
X30.763 Y34.371
X30.828 Y34.328
X31.324 Y33.983
X31.374 Y33.945
X31.828 Y33.591
X31.89 Y33.541
X32.321 Y33.166
X32.386 Y33.109
X32.4 Y33.095
X32.416 Y33.077
X32.43 Y33.06
X32.443 Y33.042
X32.454 Y33.024
X32.457 Y33.019
X32.466 Y33.003
X32.474 Y32.986
X32.481 Y32.97
X32.488 Y32.953
X32.493 Y32.936
X32.498 Y32.918
X32.502 Y32.9
X32.506 Y32.882
X32.508 Y32.865
X32.51 Y32.847
Y32.829
Y32.812
Y32.794
X32.508 Y32.776
X32.506 Y32.758
X32.502 Y32.741
X32.498 Y32.723
X32.493 Y32.705
X32.487 Y32.688
X32.481 Y32.67
X32.47 Y32.646
X32.457 Y32.623
X32.443 Y32.599
X32.431 Y32.582
X32.418 Y32.566
X32.386 Y32.533
X27.479 Y27.626
X27.477 Y27.623
X27.441 Y27.579
X27.44 Y27.577
X27.429 Y27.554
Y27.552
X27.425 Y27.528
Y27.526
X27.428 Y27.502
Y27.499
X27.438 Y27.477
Y27.475
X27.453 Y27.456
X27.455 Y27.454
X27.474 Y27.439
X27.476 Y27.438
X27.499 Y27.428
X27.502
X27.526 Y27.425
X27.528
X27.552 Y27.429
X27.554
X27.577 Y27.44
X27.579 Y27.441
X27.623 Y27.477
X27.626 Y27.479
X32.533 Y32.386
X32.566 Y32.418
X32.582 Y32.431
X32.599 Y32.443
X32.623 Y32.457
X32.646 Y32.47
X32.67 Y32.481
X32.688 Y32.487
X32.705 Y32.493
X32.723 Y32.498
X32.741 Y32.502
X32.758 Y32.506
X32.776 Y32.508
X32.794 Y32.51
X32.812
X32.829
X32.847
X32.865 Y32.508
X32.882 Y32.506
X32.9 Y32.502
X32.918 Y32.498
X32.936 Y32.493
X32.953 Y32.488
X32.97 Y32.481
X32.986 Y32.474
X33.003 Y32.466
X33.019 Y32.457
X33.024 Y32.454
X33.042 Y32.443
X33.06 Y32.43
X33.077 Y32.416
X33.095 Y32.4
X33.109 Y32.386
X33.166 Y32.321
X33.541 Y31.89
X33.591 Y31.828
X33.945 Y31.374
X33.983 Y31.324
X34.328 Y30.828
X34.371 Y30.763
X34.682 Y30.261
X34.723 Y30.19
X35.008 Y29.668
X35.031 Y29.623
X35.303 Y29.056
X35.333 Y28.985
X35.539 Y28.489
X35.568 Y28.418
X35.575 Y28.397
X35.767 Y27.851
X35.788 Y27.794
X35.792 Y27.781
X35.958 Y27.214
X35.978 Y27.143
X35.995 Y27.072
X36.111 Y26.576
X36.128 Y26.505
X36.141 Y26.434
X36.242 Y25.867
X36.253 Y25.797
X36.322 Y25.23
X36.33 Y25.159
X36.374 Y24.521
X36.375 Y24.486
Y24.468
X36.373 Y24.45
X36.371 Y24.432
X36.368 Y24.415
X36.365 Y24.397
X36.36 Y24.379
X36.355 Y24.362
X36.344 Y24.335
X36.332 Y24.308
X36.322 Y24.291
X36.311 Y24.273
X36.299 Y24.255
X36.285 Y24.238
X36.284 Y24.236
X36.267 Y24.217
X36.248 Y24.198
X36.231 Y24.183
X36.213 Y24.169
X36.209 Y24.167
X36.193 Y24.155
X36.176 Y24.145
X36.159 Y24.136
X36.142 Y24.128
X36.124 Y24.121
X36.107 Y24.114
X36.089 Y24.108
X36.071 Y24.104
X36.049 Y24.099
X36.027 Y24.096
X36. Y24.094
X35.929 Y24.093
X29.029
X29.027
X28.967 Y24.087
X28.965
X28.943 Y24.078
X28.941 Y24.077
X28.921 Y24.062
X28.919 Y24.061
X28.904 Y24.042
X28.903 Y24.04
X28.893 Y24.016
Y24.014
X28.889 Y23.99
X28.893 Y23.965
Y23.963
X28.903 Y23.939
X28.904 Y23.938
X28.919 Y23.918
X28.921 Y23.917
X28.941 Y23.902
X28.943 Y23.901
X28.965 Y23.893
X28.967 Y23.892
X29.027 Y23.886
X29.029
X35.929
X36.
X36.027 Y23.883
X36.049 Y23.88
X36.071 Y23.875
X36.089 Y23.871
X36.107 Y23.865
X36.124 Y23.859
X36.142 Y23.851
X36.159 Y23.843
X36.176 Y23.834
X36.193 Y23.824
X36.209 Y23.812
X36.213 Y23.81
X36.231 Y23.796
X36.248 Y23.781
X36.267 Y23.762
X36.284 Y23.743
X36.285 Y23.742
X36.299 Y23.724
X36.311 Y23.706
X36.322 Y23.688
X36.332 Y23.671
X36.344 Y23.644
X36.355 Y23.617
X36.36 Y23.6
X36.365 Y23.582
X36.368 Y23.564
X36.371 Y23.547
X36.373 Y23.529
X36.375 Y23.511
Y23.494
X36.374 Y23.458
X36.33 Y22.82
X36.322 Y22.75
X36.253 Y22.183
X36.242 Y22.112
X36.141 Y21.545
X36.128 Y21.474
X36.071 Y21.233
X35.995 Y20.907
X35.978 Y20.836
X35.958 Y20.765
X35.792 Y20.199
X35.788 Y20.186
X35.767 Y20.128
X35.575 Y19.582
X35.568 Y19.561
X35.539 Y19.49
X35.333 Y18.994
X35.303 Y18.923
X35.031 Y18.356
X35.008 Y18.311
X34.723 Y17.789
X34.682 Y17.719
X34.371 Y17.216
X34.328 Y17.152
X33.983 Y16.656
X33.945 Y16.605
X33.591 Y16.151
X33.541 Y16.089
X33.166 Y15.658
X33.109 Y15.593
X33.095 Y15.579
X33.077 Y15.563
X33.06 Y15.549
X33.042 Y15.536
X33.024 Y15.525
X33.019 Y15.522
X33.003 Y15.513
X32.986 Y15.505
X32.97 Y15.498
X32.953 Y15.492
X32.936 Y15.486
X32.918 Y15.481
X32.9 Y15.477
X32.882 Y15.474
X32.865 Y15.471
X32.847 Y15.47
X32.829 Y15.469
X32.812
X32.794 Y15.47
X32.776 Y15.471
X32.758 Y15.474
X32.741 Y15.477
X32.723 Y15.481
X32.705 Y15.486
X32.688 Y15.492
X32.67 Y15.499
X32.646 Y15.509
X32.623 Y15.522
X32.599 Y15.537
X32.582 Y15.548
X32.566 Y15.562
X32.533 Y15.593
X27.626 Y20.5
X27.623 Y20.502
X27.579 Y20.538
X27.577 Y20.54
X27.554 Y20.55
X27.552
X27.528 Y20.554
X27.526
X27.502 Y20.551
X27.499
X27.476 Y20.541
X27.474 Y20.54
X27.455 Y20.525
X27.453 Y20.523
X27.438 Y20.504
Y20.502
X27.428 Y20.48
Y20.477
X27.425 Y20.454
Y20.451
X27.429 Y20.427
Y20.425
X27.44 Y20.402
X27.441 Y20.4
X27.477 Y20.356
X27.479 Y20.354
X32.386 Y15.446
X32.418 Y15.413
X32.431 Y15.397
X32.443 Y15.38
X32.457 Y15.357
X32.47 Y15.333
X32.481 Y15.309
X32.487 Y15.292
X32.493 Y15.274
X32.498 Y15.256
X32.502 Y15.238
X32.506 Y15.221
X32.508 Y15.203
X32.51 Y15.185
Y15.168
Y15.15
Y15.132
X32.508 Y15.114
X32.506 Y15.097
X32.502 Y15.079
X32.498 Y15.061
X32.493 Y15.044
X32.488 Y15.026
X32.481 Y15.009
X32.474 Y14.993
X32.466 Y14.977
X32.457 Y14.96
X32.454 Y14.955
X32.443 Y14.937
X32.43 Y14.92
X32.416 Y14.902
X32.4 Y14.884
X32.386 Y14.87
X32.321 Y14.813
X31.89 Y14.438
X31.828 Y14.388
X31.374 Y14.034
X31.324 Y13.996
X30.828 Y13.651
X30.763 Y13.609
X30.261 Y13.297
X30.19 Y13.257
X29.668 Y12.971
X29.623 Y12.948
X29.056 Y12.676
X28.985 Y12.646
X28.489 Y12.441
X28.418 Y12.411
X28.397 Y12.404
X27.851 Y12.212
X27.794 Y12.191
X27.781 Y12.187
X27.214 Y12.022
X27.143 Y12.001
X27.072 Y11.984
X26.576 Y11.868
X26.505 Y11.851
X26.434 Y11.838
X25.867 Y11.737
X25.797 Y11.727
X25.23 Y11.657
X25.159 Y11.649
X24.521 Y11.605
X24.486 Y11.604
X24.468
X24.45 Y11.606
X24.432 Y11.608
X24.415 Y11.611
X24.397 Y11.615
X24.379 Y11.619
X24.362 Y11.625
X24.335 Y11.635
X24.308 Y11.647
X24.291 Y11.657
X24.273 Y11.668
X24.255 Y11.68
X24.238 Y11.694
X24.236 Y11.695
X24.217 Y11.712
X24.198 Y11.731
X24.183 Y11.749
X24.169 Y11.766
X24.167 Y11.77
X24.155 Y11.787
X24.145 Y11.803
X24.136 Y11.82
X24.128 Y11.837
X24.121 Y11.855
X24.114 Y11.873
X24.108 Y11.89
X24.104 Y11.908
X24.099 Y11.93
X24.096 Y11.952
X24.094 Y11.979
X24.093 Y12.05
Y18.95
Y18.952
X24.087 Y19.012
Y19.014
X24.078 Y19.036
X24.077 Y19.038
X24.062 Y19.059
X24.061 Y19.06
X24.042 Y19.075
X24.04 Y19.076
X24.016 Y19.086
X24.014
X23.99 Y19.09
X23.965 Y19.086
X23.963
X23.939 Y19.076
X23.938 Y19.075
X23.918 Y19.06
X23.917 Y19.059
X23.902 Y19.038
X23.901 Y19.036
X23.893 Y19.014
X23.892 Y19.012
X23.886 Y18.952
Y18.95
Y12.05
Y11.979
X23.883 Y11.952
X23.88 Y11.93
X23.875 Y11.908
X23.871 Y11.89
X23.865 Y11.873
X23.859 Y11.855
X23.851 Y11.837
X23.843 Y11.82
X23.834 Y11.803
X23.824 Y11.787
X23.812 Y11.77
X23.81 Y11.766
X23.796 Y11.749
X23.781 Y11.731
X23.762 Y11.712
X23.743 Y11.695
X23.742 Y11.694
X23.724 Y11.68
X23.706 Y11.668
X23.688 Y11.657
X23.671 Y11.647
X23.644 Y11.635
X23.617 Y11.625
X23.6 Y11.619
X23.582 Y11.615
X23.564 Y11.611
X23.547 Y11.608
X23.529 Y11.606
X23.511 Y11.604
X23.494
X23.458 Y11.605
X22.82 Y11.649
X22.75 Y11.657
X22.183 Y11.727
X22.112 Y11.737
X21.545 Y11.838
X21.474 Y11.851
X21.233 Y11.908
X20.907 Y11.984
X20.836 Y12.001
X20.765 Y12.022
X20.199 Y12.187
X20.186 Y12.191
X20.128 Y12.212
X19.582 Y12.404
X19.561 Y12.411
X19.49 Y12.441
X18.994 Y12.646
X18.923 Y12.676
X18.356 Y12.948
X18.311 Y12.971
X17.789 Y13.257
X17.719 Y13.297
X17.216 Y13.609
X17.152 Y13.651
X16.656 Y13.996
X16.605 Y14.034
X16.151 Y14.388
X16.089 Y14.438
X15.658 Y14.813
X15.593 Y14.87
X15.579 Y14.884
X15.563 Y14.902
X15.549 Y14.92
X15.536 Y14.937
X15.525 Y14.955
X15.522 Y14.96
X15.513 Y14.977
X15.505 Y14.993
X15.498 Y15.009
X15.492 Y15.026
X15.486 Y15.044
X15.481 Y15.061
X15.477 Y15.079
X15.474 Y15.097
X15.471 Y15.114
X15.47 Y15.132
X15.469 Y15.15
Y15.168
X15.47 Y15.185
X15.471 Y15.203
X15.474 Y15.221
X15.477 Y15.238
X15.481 Y15.256
X15.486 Y15.274
X15.492 Y15.292
X15.499 Y15.309
X15.509 Y15.333
X15.522 Y15.357
X15.537 Y15.38
X15.548 Y15.397
X15.562 Y15.413
X15.593 Y15.446
X20.5 Y20.354
X20.502 Y20.356
X20.538 Y20.4
X20.54 Y20.402
X20.55 Y20.425
Y20.427
X20.554 Y20.451
Y20.454
X20.551 Y20.477
Y20.48
X20.542 Y20.502
X20.541 Y20.504
X20.526 Y20.523
X20.524 Y20.525
X20.505 Y20.54
X20.503 Y20.541
X20.48 Y20.551
X20.477
X20.454 Y20.554
X20.451
X20.427 Y20.55
X20.425
X20.402 Y20.54
X20.4 Y20.538
X20.356 Y20.502
X20.354 Y20.5
X15.446 Y15.593
X15.413 Y15.562
X15.397 Y15.548
X15.38 Y15.537
X15.357 Y15.522
X15.333 Y15.509
X15.309 Y15.499
X15.292 Y15.492
X15.274 Y15.486
X15.256 Y15.481
X15.238 Y15.477
X15.221 Y15.474
X15.203 Y15.471
X15.185 Y15.47
X15.168 Y15.469
X15.15
X15.132 Y15.47
X15.114 Y15.471
X15.097 Y15.474
X15.079 Y15.477
X15.061 Y15.481
X15.044 Y15.486
X15.026 Y15.492
X15.009 Y15.498
X14.993 Y15.505
X14.977 Y15.513
X14.96 Y15.522
X14.955 Y15.525
X14.937 Y15.536
X14.92 Y15.549
X14.902 Y15.563
X14.884 Y15.579
X14.87 Y15.593
X14.813 Y15.658
X14.438 Y16.089
X14.388 Y16.151
X14.034 Y16.605
X13.996 Y16.656
X13.651 Y17.152
X13.609 Y17.216
X13.297 Y17.719
X13.257 Y17.789
X12.971 Y18.311
X12.948 Y18.356
X12.676 Y18.923
X12.646 Y18.994
X12.441 Y19.49
X12.411 Y19.561
X12.404 Y19.582
X12.212 Y20.128
X12.191 Y20.186
X12.187 Y20.199
X12.022 Y20.765
X12.001 Y20.836
X11.984 Y20.907
X11.868 Y21.403
X11.851 Y21.474
X11.838 Y21.545
X11.737 Y22.112
X11.727 Y22.183
X11.657 Y22.75
X11.649 Y22.82
X11.625 Y23.174
X11.622 Y23.204
X11.62 Y23.235
X11.616 Y23.297
X11.608 Y23.42 Z-0.151
X11.604 Y23.482 Z-0.152
Y23.513
X11.607 Y23.544
X11.613 Y23.574 Z-0.153
X11.621 Y23.604
X11.631 Y23.634
X11.643 Y23.662 Z-0.154
X11.658 Y23.689
X11.674 Y23.715 Z-0.155
X11.693 Y23.74
X11.713 Y23.763 Z-0.156
X11.735 Y23.785
X11.759 Y23.805 Z-0.157
X11.784 Y23.822 Z-0.158
X11.811 Y23.838
X11.839 Y23.852 Z-0.159
X11.868 Y23.863 Z-0.16
X11.897 Y23.873
X11.927 Y23.879 Z-0.161
X11.958 Y23.884 Z-0.162
X11.989 Y23.886 Z-0.163
X12.051 Z-0.164
X12.174 Z-0.168
X12.298 Z-0.171
X12.422 Z-0.175
X12.546 Z-0.18
X15.144 Z-0.27
X15.268 Z-0.275
X15.392 Z-0.279
X15.516 Z-0.282
X15.639 Z-0.286
X15.763 Z-0.289
X15.887 Z-0.292
X16.011 Z-0.294
X16.134 Z-0.296
X16.258 Z-0.298
X16.382 Z-0.299
X16.506 Z-0.3
X16.565
X16.609
X16.624
X18.95
X18.952
X19.012 Y23.892
X19.014 Y23.893
X19.036 Y23.901
X19.038 Y23.902
X19.059 Y23.917
X19.06 Y23.918
X19.075 Y23.938
X19.076 Y23.939
X19.086 Y23.963
Y23.965
X19.09 Y23.99
X19.086 Y24.014
Y24.016
X19.076 Y24.04
X19.075 Y24.042
X19.06 Y24.061
X19.059 Y24.062
X19.038 Y24.077
X19.036 Y24.078
X19.014 Y24.087
X19.012
X18.952 Y24.093
X18.95
X12.05
X11.979 Y24.094
X11.952 Y24.096
X11.93 Y24.099
X11.908 Y24.104
X11.89 Y24.108
X11.873 Y24.114
X11.855 Y24.121
X11.837 Y24.128
X11.82 Y24.136
X11.803 Y24.145
X11.787 Y24.155
X11.77 Y24.167
X11.766 Y24.169
X11.749 Y24.183
X11.731 Y24.198
X11.712 Y24.217
X11.695 Y24.236
X11.694 Y24.238
X11.68 Y24.255
X11.668 Y24.273
X11.657 Y24.291
X11.647 Y24.308
X11.635 Y24.335
X11.625 Y24.362
X11.619 Y24.379
X11.615 Y24.397
X11.611 Y24.415
X11.608 Y24.432
X11.606 Y24.45
X11.604 Y24.468
Y24.486
X11.605 Y24.521
X11.649 Y25.159
X11.657 Y25.23
X11.727 Y25.797
X11.737 Y25.867
X11.838 Y26.434
X11.851 Y26.505
X11.908 Y26.746
X11.984 Y27.072
X12.001 Y27.143
X12.022 Y27.214
X12.187 Y27.781
X12.191 Y27.794
X12.212 Y27.851
X12.404 Y28.397
X12.411 Y28.418
X12.441 Y28.489
X12.646 Y28.985
X12.676 Y29.056
X12.948 Y29.623
X12.971 Y29.668
X13.257 Y30.19
X13.297 Y30.261
X13.609 Y30.763
X13.651 Y30.828
X13.996 Y31.324
X14.034 Y31.374
X14.388 Y31.828
X14.438 Y31.89
X14.813 Y32.321
X14.87 Y32.386
X14.884 Y32.4
X14.902 Y32.416
X14.92 Y32.43
X14.937 Y32.443
X14.955 Y32.454
X14.96 Y32.457
X14.977 Y32.466
X14.993 Y32.474
X15.009 Y32.481
X15.026 Y32.488
X15.044 Y32.493
X15.061 Y32.498
X15.079 Y32.502
X15.097 Y32.506
X15.114 Y32.508
X15.132 Y32.51
X15.15
X15.168
X15.185
X15.203 Y32.508
X15.221 Y32.506
X15.238 Y32.502
X15.256 Y32.498
X15.274 Y32.493
X15.292 Y32.487
X15.309 Y32.481
X15.333 Y32.47
X15.357 Y32.457
X15.38 Y32.443
X15.397 Y32.431
X15.413 Y32.418
X15.446 Y32.386
X20.354 Y27.479
X20.356 Y27.477
X20.4 Y27.441
X20.402 Y27.44
X20.425 Y27.429
X20.427
X20.451 Y27.425
X20.454
X20.477 Y27.428
X20.48
X20.503 Y27.438
X20.505 Y27.439
X20.524 Y27.454
X20.526 Y27.456
X20.541 Y27.475
X20.542 Y27.477
X20.551 Y27.499
Y27.502
X20.554 Y27.526
Y27.528
X20.55 Y27.552
Y27.554
X20.54 Y27.577
X20.538 Y27.579
X20.502 Y27.623
X20.5 Y27.626
X15.593 Y32.533
X15.562 Y32.566
X15.548 Y32.582
X15.537 Y32.599
X15.522 Y32.623
X15.509 Y32.646
X15.499 Y32.67
X15.492 Y32.688
X15.486 Y32.705
X15.481 Y32.723
X15.477 Y32.741
X15.474 Y32.758
X15.471 Y32.776
X15.47 Y32.794
X15.469 Y32.812
Y32.829
X15.47 Y32.847
X15.471 Y32.865
X15.474 Y32.882
X15.477 Y32.9
X15.481 Y32.918
X15.486 Y32.936
X15.492 Y32.953
X15.498 Y32.97
X15.505 Y32.986
X15.513 Y33.003
X15.522 Y33.019
X15.525 Y33.024
X15.536 Y33.042
X15.549 Y33.06
X15.563 Y33.077
X15.579 Y33.095
X15.593 Y33.109
X15.658 Y33.166
X16.089 Y33.541
X16.151 Y33.591
X16.605 Y33.945
X16.656 Y33.983
X17.152 Y34.328
X17.216 Y34.371
X17.719 Y34.682
X17.789 Y34.723
X18.311 Y35.008
X18.356 Y35.031
X18.923 Y35.303
X18.994 Y35.333
X19.49 Y35.539
X19.561 Y35.568
X19.582 Y35.575
X20.128 Y35.767
X20.186 Y35.788
X20.199 Y35.792
X20.765 Y35.958
X20.836 Y35.978
X20.907 Y35.995
X21.403 Y36.111
X21.474 Y36.128
X21.545 Y36.141
X22.112 Y36.242
X22.183 Y36.253
X22.75 Y36.322
X22.82 Y36.33
X23.458 Y36.374
X23.494 Y36.375
X23.511
X23.529 Y36.373
X23.547 Y36.371
X23.564 Y36.368
X23.582 Y36.365
X23.6 Y36.36
X23.617 Y36.355
X23.644 Y36.344
X23.671 Y36.332
X23.688 Y36.322
X23.706 Y36.311
X23.724 Y36.299
X23.742 Y36.285
X23.743 Y36.284
X23.762 Y36.267
X23.781 Y36.248
X23.796 Y36.231
X23.81 Y36.213
X23.812 Y36.209
X23.824 Y36.193
X23.834 Y36.176
X23.843 Y36.159
X23.851 Y36.142
X23.859 Y36.124
X23.865 Y36.107
X23.871 Y36.089
X23.875 Y36.071
X23.88 Y36.049
X23.883 Y36.027
X23.886 Y36.
Y35.929
Y29.029
Y29.027
X23.892 Y28.967
X23.893 Y28.965
X23.901 Y28.943
X23.902 Y28.941
X23.917 Y28.921
X23.918 Y28.919
X23.938 Y28.904
X23.939 Y28.903
X23.963 Y28.893
X23.965
X23.99 Y28.889
X24.014 Y28.893
X24.016
X24.04 Y28.903
X24.042 Y28.904
X24.061 Y28.919
X24.062 Y28.921
X24.077 Y28.941
X24.078 Y28.943
X24.087 Y28.965
Y28.967
X24.093 Y29.027
Y29.029
Y35.929
X24.094 Y36.
X24.096 Y36.027
X24.099 Y36.049
X24.104 Y36.071
X24.108 Y36.089
X24.114 Y36.107
X24.121 Y36.124
X24.128 Y36.142
X24.136 Y36.159
X24.145 Y36.176
X24.155 Y36.193
X24.167 Y36.209
X24.169 Y36.213
X24.183 Y36.231
X24.198 Y36.248
X24.217 Y36.267
X24.236 Y36.284
X24.238 Y36.285
X24.255 Y36.299
X24.273 Y36.311
X24.291 Y36.322
X24.308 Y36.332
X24.335 Y36.344
X24.362 Y36.355
X24.379 Y36.36
X24.397 Y36.365
X24.415 Y36.368
X24.432 Y36.371
X24.45 Y36.373
X24.468 Y36.375
X24.486
X24.521 Y36.374
X25.159 Y36.33
X25.23 Y36.322
X25.797 Y36.253
X25.867 Y36.242
X26.434 Y36.141
X26.505 Y36.128
X26.746 Y36.071
X27.072 Y35.995
X27.143 Y35.978
X27.214 Y35.958
X27.781 Y35.792
X27.794 Y35.788
X27.851 Y35.767
X28.397 Y35.575
X28.418 Y35.568
X28.489 Y35.539
X28.985 Y35.333
X29.056 Y35.303
X29.623 Y35.031
X29.668 Y35.008
X30.19 Y34.723
X30.261 Y34.682
X30.763 Y34.371
X30.828 Y34.328
X31.324 Y33.983
X31.374 Y33.945
X31.828 Y33.591
X31.89 Y33.541
X32.321 Y33.166
X32.386 Y33.109
X32.4 Y33.095
X32.416 Y33.077
X32.43 Y33.06
X32.443 Y33.042
X32.454 Y33.024
X32.457 Y33.019
X32.466 Y33.003
X32.474 Y32.986
X32.481 Y32.97
X32.488 Y32.953
X32.493 Y32.936
X32.498 Y32.918
X32.502 Y32.9
X32.506 Y32.882
X32.508 Y32.865
X32.51 Y32.847
Y32.829
Y32.812
Y32.794
X32.508 Y32.776
X32.506 Y32.758
X32.502 Y32.741
X32.498 Y32.723
X32.493 Y32.705
X32.487 Y32.688
X32.481 Y32.67
X32.47 Y32.646
X32.457 Y32.623
X32.443 Y32.599
X32.431 Y32.582
X32.418 Y32.566
X32.386 Y32.533
X27.479 Y27.626
X27.477 Y27.623
X27.441 Y27.579
X27.44 Y27.577
X27.429 Y27.554
Y27.552
X27.425 Y27.528
Y27.526
X27.428 Y27.502
Y27.499
X27.438 Y27.477
Y27.475
X27.453 Y27.456
X27.455 Y27.454
X27.474 Y27.439
X27.476 Y27.438
X27.499 Y27.428
X27.502
X27.526 Y27.425
X27.528
X27.552 Y27.429
X27.554
X27.577 Y27.44
X27.579 Y27.441
X27.623 Y27.477
X27.626 Y27.479
X32.533 Y32.386
X32.566 Y32.418
X32.582 Y32.431
X32.599 Y32.443
X32.623 Y32.457
X32.646 Y32.47
X32.67 Y32.481
X32.688 Y32.487
X32.705 Y32.493
X32.723 Y32.498
X32.741 Y32.502
X32.758 Y32.506
X32.776 Y32.508
X32.794 Y32.51
X32.812
X32.829
X32.847
X32.865 Y32.508
X32.882 Y32.506
X32.9 Y32.502
X32.918 Y32.498
X32.936 Y32.493
X32.953 Y32.488
X32.97 Y32.481
X32.986 Y32.474
X33.003 Y32.466
X33.019 Y32.457
X33.024 Y32.454
X33.042 Y32.443
X33.06 Y32.43
X33.077 Y32.416
X33.095 Y32.4
X33.109 Y32.386
X33.166 Y32.321
X33.541 Y31.89
X33.591 Y31.828
X33.945 Y31.374
X33.983 Y31.324
X34.328 Y30.828
X34.371 Y30.763
X34.682 Y30.261
X34.723 Y30.19
X35.008 Y29.668
X35.031 Y29.623
X35.303 Y29.056
X35.333 Y28.985
X35.539 Y28.489
X35.568 Y28.418
X35.575 Y28.397
X35.767 Y27.851
X35.788 Y27.794
X35.792 Y27.781
X35.958 Y27.214
X35.978 Y27.143
X35.995 Y27.072
X36.111 Y26.576
X36.128 Y26.505
X36.141 Y26.434
X36.242 Y25.867
X36.253 Y25.797
X36.322 Y25.23
X36.33 Y25.159
X36.374 Y24.521
X36.375 Y24.486
Y24.468
X36.373 Y24.45
X36.371 Y24.432
X36.368 Y24.415
X36.365 Y24.397
X36.36 Y24.379
X36.355 Y24.362
X36.344 Y24.335
X36.332 Y24.308
X36.322 Y24.291
X36.311 Y24.273
X36.299 Y24.255
X36.285 Y24.238
X36.284 Y24.236
X36.267 Y24.217
X36.248 Y24.198
X36.231 Y24.183
X36.213 Y24.169
X36.209 Y24.167
X36.193 Y24.155
X36.176 Y24.145
X36.159 Y24.136
X36.142 Y24.128
X36.124 Y24.121
X36.107 Y24.114
X36.089 Y24.108
X36.071 Y24.104
X36.049 Y24.099
X36.027 Y24.096
X36. Y24.094
X35.929 Y24.093
X29.029
X29.027
X28.967 Y24.087
X28.965
X28.943 Y24.078
X28.941 Y24.077
X28.921 Y24.062
X28.919 Y24.061
X28.904 Y24.042
X28.903 Y24.04
X28.893 Y24.016
Y24.014
X28.889 Y23.99
X28.893 Y23.965
Y23.963
X28.903 Y23.939
X28.904 Y23.938
X28.919 Y23.918
X28.921 Y23.917
X28.941 Y23.902
X28.943 Y23.901
X28.965 Y23.893
X28.967 Y23.892
X29.027 Y23.886
X29.029
X35.929
X36.
X36.027 Y23.883
X36.049 Y23.88
X36.071 Y23.875
X36.089 Y23.871
X36.107 Y23.865
X36.124 Y23.859
X36.142 Y23.851
X36.159 Y23.843
X36.176 Y23.834
X36.193 Y23.824
X36.209 Y23.812
X36.213 Y23.81
X36.231 Y23.796
X36.248 Y23.781
X36.267 Y23.762
X36.284 Y23.743
X36.285 Y23.742
X36.299 Y23.724
X36.311 Y23.706
X36.322 Y23.688
X36.332 Y23.671
X36.344 Y23.644
X36.355 Y23.617
X36.36 Y23.6
X36.365 Y23.582
X36.368 Y23.564
X36.371 Y23.547
X36.373 Y23.529
X36.375 Y23.511
Y23.494
X36.374 Y23.458
X36.33 Y22.82
X36.322 Y22.75
X36.253 Y22.183
X36.242 Y22.112
X36.141 Y21.545
X36.128 Y21.474
X36.071 Y21.233
X35.995 Y20.907
X35.978 Y20.836
X35.958 Y20.765
X35.792 Y20.199
X35.788 Y20.186
X35.767 Y20.128
X35.575 Y19.582
X35.568 Y19.561
X35.539 Y19.49
X35.333 Y18.994
X35.303 Y18.923
X35.031 Y18.356
X35.008 Y18.311
X34.723 Y17.789
X34.682 Y17.719
X34.371 Y17.216
X34.328 Y17.152
X33.983 Y16.656
X33.945 Y16.605
X33.591 Y16.151
X33.541 Y16.089
X33.166 Y15.658
X33.109 Y15.593
X33.095 Y15.579
X33.077 Y15.563
X33.06 Y15.549
X33.042 Y15.536
X33.024 Y15.525
X33.019 Y15.522
X33.003 Y15.513
X32.986 Y15.505
X32.97 Y15.498
X32.953 Y15.492
X32.936 Y15.486
X32.918 Y15.481
X32.9 Y15.477
X32.882 Y15.474
X32.865 Y15.471
X32.847 Y15.47
X32.829 Y15.469
X32.812
X32.794 Y15.47
X32.776 Y15.471
X32.758 Y15.474
X32.741 Y15.477
X32.723 Y15.481
X32.705 Y15.486
X32.688 Y15.492
X32.67 Y15.499
X32.646 Y15.509
X32.623 Y15.522
X32.599 Y15.537
X32.582 Y15.548
X32.566 Y15.562
X32.533 Y15.593
X27.626 Y20.5
X27.623 Y20.502
X27.579 Y20.538
X27.577 Y20.54
X27.554 Y20.55
X27.552
X27.528 Y20.554
X27.526
X27.502 Y20.551
X27.499
X27.476 Y20.541
X27.474 Y20.54
X27.455 Y20.525
X27.453 Y20.523
X27.438 Y20.504
Y20.502
X27.428 Y20.48
Y20.477
X27.425 Y20.454
Y20.451
X27.429 Y20.427
Y20.425
X27.44 Y20.402
X27.441 Y20.4
X27.477 Y20.356
X27.479 Y20.354
X32.386 Y15.446
X32.418 Y15.413
X32.431 Y15.397
X32.443 Y15.38
X32.457 Y15.357
X32.47 Y15.333
X32.481 Y15.309
X32.487 Y15.292
X32.493 Y15.274
X32.498 Y15.256
X32.502 Y15.238
X32.506 Y15.221
X32.508 Y15.203
X32.51 Y15.185
Y15.168
Y15.15
Y15.132
X32.508 Y15.114
X32.506 Y15.097
X32.502 Y15.079
X32.498 Y15.061
X32.493 Y15.044
X32.488 Y15.026
X32.481 Y15.009
X32.474 Y14.993
X32.466 Y14.977
X32.457 Y14.96
X32.454 Y14.955
X32.443 Y14.937
X32.43 Y14.92
X32.416 Y14.902
X32.4 Y14.884
X32.386 Y14.87
X32.321 Y14.813
X31.89 Y14.438
X31.828 Y14.388
X31.374 Y14.034
X31.324 Y13.996
X30.828 Y13.651
X30.763 Y13.609
X30.261 Y13.297
X30.19 Y13.257
X29.668 Y12.971
X29.623 Y12.948
X29.056 Y12.676
X28.985 Y12.646
X28.489 Y12.441
X28.418 Y12.411
X28.397 Y12.404
X27.851 Y12.212
X27.794 Y12.191
X27.781 Y12.187
X27.214 Y12.022
X27.143 Y12.001
X27.072 Y11.984
X26.576 Y11.868
X26.505 Y11.851
X26.434 Y11.838
X25.867 Y11.737
X25.797 Y11.727
X25.23 Y11.657
X25.159 Y11.649
X24.521 Y11.605
X24.486 Y11.604
X24.468
X24.45 Y11.606
X24.432 Y11.608
X24.415 Y11.611
X24.397 Y11.615
X24.379 Y11.619
X24.362 Y11.625
X24.335 Y11.635
X24.308 Y11.647
X24.291 Y11.657
X24.273 Y11.668
X24.255 Y11.68
X24.238 Y11.694
X24.236 Y11.695
X24.217 Y11.712
X24.198 Y11.731
X24.183 Y11.749
X24.169 Y11.766
X24.167 Y11.77
X24.155 Y11.787
X24.145 Y11.803
X24.136 Y11.82
X24.128 Y11.837
X24.121 Y11.855
X24.114 Y11.873
X24.108 Y11.89
X24.104 Y11.908
X24.099 Y11.93
X24.096 Y11.952
X24.094 Y11.979
X24.093 Y12.05
Y18.95
Y18.952
X24.087 Y19.012
Y19.014
X24.078 Y19.036
X24.077 Y19.038
X24.062 Y19.059
X24.061 Y19.06
X24.042 Y19.075
X24.04 Y19.076
X24.016 Y19.086
X24.014
X23.99 Y19.09
X23.965 Y19.086
X23.963
X23.939 Y19.076
X23.938 Y19.075
X23.918 Y19.06
X23.917 Y19.059
X23.902 Y19.038
X23.901 Y19.036
X23.893 Y19.014
X23.892 Y19.012
X23.886 Y18.952
Y18.95
Y12.05
Y11.979
X23.883 Y11.952
X23.88 Y11.93
X23.875 Y11.908
X23.871 Y11.89
X23.865 Y11.873
X23.859 Y11.855
X23.851 Y11.837
X23.843 Y11.82
X23.834 Y11.803
X23.824 Y11.787
X23.812 Y11.77
X23.81 Y11.766
X23.796 Y11.749
X23.781 Y11.731
X23.762 Y11.712
X23.743 Y11.695
X23.742 Y11.694
X23.724 Y11.68
X23.706 Y11.668
X23.688 Y11.657
X23.671 Y11.647
X23.644 Y11.635
X23.617 Y11.625
X23.6 Y11.619
X23.582 Y11.615
X23.564 Y11.611
X23.547 Y11.608
X23.529 Y11.606
X23.511 Y11.604
X23.494
X23.458 Y11.605
X22.82 Y11.649
X22.75 Y11.657
X22.183 Y11.727
X22.112 Y11.737
X21.545 Y11.838
X21.474 Y11.851
X21.233 Y11.908
X20.907 Y11.984
X20.836 Y12.001
X20.765 Y12.022
X20.199 Y12.187
X20.186 Y12.191
X20.128 Y12.212
X19.582 Y12.404
X19.561 Y12.411
X19.49 Y12.441
X18.994 Y12.646
X18.923 Y12.676
X18.356 Y12.948
X18.311 Y12.971
X17.789 Y13.257
X17.719 Y13.297
X17.216 Y13.609
X17.152 Y13.651
X16.656 Y13.996
X16.605 Y14.034
X16.151 Y14.388
X16.089 Y14.438
X15.658 Y14.813
X15.593 Y14.87
X15.579 Y14.884
X15.563 Y14.902
X15.549 Y14.92
X15.536 Y14.937
X15.525 Y14.955
X15.522 Y14.96
X15.513 Y14.977
X15.505 Y14.993
X15.498 Y15.009
X15.492 Y15.026
X15.486 Y15.044
X15.481 Y15.061
X15.477 Y15.079
X15.474 Y15.097
X15.471 Y15.114
X15.47 Y15.132
X15.469 Y15.15
Y15.168
X15.47 Y15.185
X15.471 Y15.203
X15.474 Y15.221
X15.477 Y15.238
X15.481 Y15.256
X15.486 Y15.274
X15.492 Y15.292
X15.499 Y15.309
X15.509 Y15.333
X15.522 Y15.357
X15.537 Y15.38
X15.548 Y15.397
X15.562 Y15.413
X15.593 Y15.446
X20.5 Y20.354
X20.502 Y20.356
X20.538 Y20.4
X20.54 Y20.402
X20.55 Y20.425
Y20.427
X20.554 Y20.451
Y20.454
X20.551 Y20.477
Y20.48
X20.542 Y20.502
X20.541 Y20.504
X20.526 Y20.523
X20.524 Y20.525
X20.505 Y20.54
X20.503 Y20.541
X20.48 Y20.551
X20.477
X20.454 Y20.554
X20.451
X20.427 Y20.55
X20.425
X20.402 Y20.54
X20.4 Y20.538
X20.356 Y20.502
X20.354 Y20.5
X15.446 Y15.593
X15.413 Y15.562
X15.397 Y15.548
X15.38 Y15.537
X15.357 Y15.522
X15.333 Y15.509
X15.309 Y15.499
X15.292 Y15.492
X15.274 Y15.486
X15.256 Y15.481
X15.238 Y15.477
X15.221 Y15.474
X15.203 Y15.471
X15.185 Y15.47
X15.168 Y15.469
X15.15
X15.132 Y15.47
X15.114 Y15.471
X15.097 Y15.474
X15.079 Y15.477
X15.061 Y15.481
X15.044 Y15.486
X15.026 Y15.492
X15.009 Y15.498
X14.993 Y15.505
X14.977 Y15.513
X14.96 Y15.522
X14.955 Y15.525
X14.937 Y15.536
X14.92 Y15.549
X14.902 Y15.563
X14.884 Y15.579
X14.87 Y15.593
X14.813 Y15.658
X14.438 Y16.089
X14.388 Y16.151
X14.034 Y16.605
X13.996 Y16.656
X13.651 Y17.152
X13.609 Y17.216
X13.297 Y17.719
X13.257 Y17.789
X12.971 Y18.311
X12.948 Y18.356
X12.676 Y18.923
X12.646 Y18.994
X12.441 Y19.49
X12.411 Y19.561
X12.404 Y19.582
X12.212 Y20.128
X12.191 Y20.186
X12.187 Y20.199
X12.022 Y20.765
X12.001 Y20.836
X11.984 Y20.907
X11.868 Y21.403
X11.851 Y21.474
X11.838 Y21.545
X11.737 Y22.112
X11.727 Y22.183
X11.657 Y22.75
X11.649 Y22.82
X11.625 Y23.174
X11.605 Y23.458
X11.604 Y23.494
Y23.511
X11.606 Y23.529
X11.608 Y23.547
X11.611 Y23.564
X11.615 Y23.582
X11.619 Y23.6
X11.625 Y23.617
X11.635 Y23.644
X11.647 Y23.671
X11.657 Y23.688
X11.668 Y23.706
X11.68 Y23.724
X11.694 Y23.742
X11.695 Y23.743
X11.712 Y23.762
X11.731 Y23.781
X11.749 Y23.796
X11.766 Y23.81
X11.77 Y23.812
X11.787 Y23.824
X11.803 Y23.834
X11.82 Y23.843
X11.837 Y23.851
X11.855 Y23.859
X11.873 Y23.865
X11.89 Y23.871
X11.908 Y23.875
X11.93 Y23.88
X11.952 Y23.883
X11.979 Y23.886
X12.05
X16.624
X16.655
X16.685
X16.747
X16.871 Z-0.301
X16.995 Z-0.302
X17.119 Z-0.304
X17.242 Z-0.306
X17.366 Z-0.308
X17.49 Z-0.311
X17.614 Z-0.314
X17.737 Z-0.318
X17.861 Z-0.321
X17.985 Z-0.325
X18.109 Z-0.33
X18.952 Z-0.359
X18.955 Y23.887
X18.975 Y23.888 Z-0.36
X19.009 Y23.892 Z-0.361
X19.013
X19.035 Y23.901 Z-0.362
X19.038 Y23.902
X19.057 Y23.916 Z-0.363
X19.06 Y23.918
X19.074 Y23.937 Z-0.364
X19.076 Y23.94
X19.085 Y23.961 Z-0.365
X19.086 Y23.965
X19.09 Y23.988 Z-0.366
X19.089 Y23.992
X19.086 Y24.015
X19.085 Y24.019 Z-0.367
X19.076 Y24.04
X19.074 Y24.043
X19.059 Y24.061 Z-0.368
X19.056 Y24.064
X19.038 Y24.078 Z-0.369
X19.016 Y24.086 Z-0.37
X19.012 Y24.087
X19.008 Y24.088
X18.955 Y24.093 Z-0.372
X18.951
X18.947
X17.586 Z-0.42
X17.462 Z-0.424
X17.338 Z-0.428
X17.215 Z-0.432
X17.091 Z-0.435
X16.967 Z-0.439
X16.843 Z-0.441
X16.72 Z-0.444
X16.596 Z-0.446
X16.472 Z-0.448
X16.348 Z-0.449
X16.225 Z-0.45
X16.094
X16.088
X12.05
X11.979 Y24.094
X11.952 Y24.096
X11.93 Y24.099
X11.908 Y24.104
X11.89 Y24.108
X11.873 Y24.114
X11.855 Y24.121
X11.837 Y24.128
X11.82 Y24.136
X11.803 Y24.145
X11.787 Y24.155
X11.77 Y24.167
X11.766 Y24.169
X11.749 Y24.183
X11.731 Y24.198
X11.712 Y24.217
X11.695 Y24.236
X11.694 Y24.238
X11.68 Y24.255
X11.668 Y24.273
X11.657 Y24.291
X11.647 Y24.308
X11.635 Y24.335
X11.625 Y24.362
X11.619 Y24.379
X11.615 Y24.397
X11.611 Y24.415
X11.608 Y24.432
X11.606 Y24.45
X11.604 Y24.468
Y24.486
X11.605 Y24.521
X11.649 Y25.159
X11.657 Y25.23
X11.727 Y25.797
X11.737 Y25.867
X11.838 Y26.434
X11.851 Y26.505
X11.908 Y26.746
X11.984 Y27.072
X12.001 Y27.143
X12.022 Y27.214
X12.187 Y27.781
X12.191 Y27.794
X12.212 Y27.851
X12.404 Y28.397
X12.411 Y28.418
X12.441 Y28.489
X12.646 Y28.985
X12.676 Y29.056
X12.948 Y29.623
X12.971 Y29.668
X13.257 Y30.19
X13.297 Y30.261
X13.609 Y30.763
X13.651 Y30.828
X13.996 Y31.324
X14.034 Y31.374
X14.388 Y31.828
X14.438 Y31.89
X14.813 Y32.321
X14.87 Y32.386
X14.884 Y32.4
X14.902 Y32.416
X14.92 Y32.43
X14.937 Y32.443
X14.955 Y32.454
X14.96 Y32.457
X14.977 Y32.466
X14.993 Y32.474
X15.009 Y32.481
X15.026 Y32.488
X15.044 Y32.493
X15.061 Y32.498
X15.079 Y32.502
X15.097 Y32.506
X15.114 Y32.508
X15.132 Y32.51
X15.15
X15.168
X15.185
X15.203 Y32.508
X15.221 Y32.506
X15.238 Y32.502
X15.256 Y32.498
X15.274 Y32.493
X15.292 Y32.487
X15.309 Y32.481
X15.333 Y32.47
X15.357 Y32.457
X15.38 Y32.443
X15.397 Y32.431
X15.413 Y32.418
X15.446 Y32.386
X20.354 Y27.479
X20.356 Y27.477
X20.4 Y27.441
X20.402 Y27.44
X20.425 Y27.429
X20.427
X20.451 Y27.425
X20.454
X20.477 Y27.428
X20.48
X20.503 Y27.438
X20.505 Y27.439
X20.524 Y27.454
X20.526 Y27.456
X20.541 Y27.475
X20.542 Y27.477
X20.551 Y27.499
Y27.502
X20.554 Y27.526
Y27.528
X20.55 Y27.552
Y27.554
X20.54 Y27.577
X20.538 Y27.579
X20.502 Y27.623
X20.5 Y27.626
X15.593 Y32.533
X15.562 Y32.566
X15.548 Y32.582
X15.537 Y32.599
X15.522 Y32.623
X15.509 Y32.646
X15.499 Y32.67
X15.492 Y32.688
X15.486 Y32.705
X15.481 Y32.723
X15.477 Y32.741
X15.474 Y32.758
X15.471 Y32.776
X15.47 Y32.794
X15.469 Y32.812
Y32.829
X15.47 Y32.847
X15.471 Y32.865
X15.474 Y32.882
X15.477 Y32.9
X15.481 Y32.918
X15.486 Y32.936
X15.492 Y32.953
X15.498 Y32.97
X15.505 Y32.986
X15.513 Y33.003
X15.522 Y33.019
X15.525 Y33.024
X15.536 Y33.042
X15.549 Y33.06
X15.563 Y33.077
X15.579 Y33.095
X15.593 Y33.109
X15.658 Y33.166
X16.089 Y33.541
X16.151 Y33.591
X16.605 Y33.945
X16.656 Y33.983
X17.152 Y34.328
X17.216 Y34.371
X17.719 Y34.682
X17.789 Y34.723
X18.311 Y35.008
X18.356 Y35.031
X18.923 Y35.303
X18.994 Y35.333
X19.49 Y35.539
X19.561 Y35.568
X19.582 Y35.575
X20.128 Y35.767
X20.186 Y35.788
X20.199 Y35.792
X20.765 Y35.958
X20.836 Y35.978
X20.907 Y35.995
X21.403 Y36.111
X21.474 Y36.128
X21.545 Y36.141
X22.112 Y36.242
X22.183 Y36.253
X22.75 Y36.322
X22.82 Y36.33
X23.458 Y36.374
X23.494 Y36.375
X23.511
X23.529 Y36.373
X23.547 Y36.371
X23.564 Y36.368
X23.582 Y36.365
X23.6 Y36.36
X23.617 Y36.355
X23.644 Y36.344
X23.671 Y36.332
X23.688 Y36.322
X23.706 Y36.311
X23.724 Y36.299
X23.742 Y36.285
X23.743 Y36.284
X23.762 Y36.267
X23.781 Y36.248
X23.796 Y36.231
X23.81 Y36.213
X23.812 Y36.209
X23.824 Y36.193
X23.834 Y36.176
X23.843 Y36.159
X23.851 Y36.142
X23.859 Y36.124
X23.865 Y36.107
X23.871 Y36.089
X23.875 Y36.071
X23.88 Y36.049
X23.883 Y36.027
X23.886 Y36.
Y35.929
Y29.029
Y29.027
X23.892 Y28.967
X23.893 Y28.965
X23.901 Y28.943
X23.902 Y28.941
X23.917 Y28.921
X23.918 Y28.919
X23.938 Y28.904
X23.939 Y28.903
X23.963 Y28.893
X23.965
X23.99 Y28.889
X24.014 Y28.893
X24.016
X24.04 Y28.903
X24.042 Y28.904
X24.061 Y28.919
X24.062 Y28.921
X24.077 Y28.941
X24.078 Y28.943
X24.087 Y28.965
Y28.967
X24.093 Y29.027
Y29.029
Y35.929
X24.094 Y36.
X24.096 Y36.027
X24.099 Y36.049
X24.104 Y36.071
X24.108 Y36.089
X24.114 Y36.107
X24.121 Y36.124
X24.128 Y36.142
X24.136 Y36.159
X24.145 Y36.176
X24.155 Y36.193
X24.167 Y36.209
X24.169 Y36.213
X24.183 Y36.231
X24.198 Y36.248
X24.217 Y36.267
X24.236 Y36.284
X24.238 Y36.285
X24.255 Y36.299
X24.273 Y36.311
X24.291 Y36.322
X24.308 Y36.332
X24.335 Y36.344
X24.362 Y36.355
X24.379 Y36.36
X24.397 Y36.365
X24.415 Y36.368
X24.432 Y36.371
X24.45 Y36.373
X24.468 Y36.375
X24.486
X24.521 Y36.374
X25.159 Y36.33
X25.23 Y36.322
X25.797 Y36.253
X25.867 Y36.242
X26.434 Y36.141
X26.505 Y36.128
X26.746 Y36.071
X27.072 Y35.995
X27.143 Y35.978
X27.214 Y35.958
X27.781 Y35.792
X27.794 Y35.788
X27.851 Y35.767
X28.397 Y35.575
X28.418 Y35.568
X28.489 Y35.539
X28.985 Y35.333
X29.056 Y35.303
X29.623 Y35.031
X29.668 Y35.008
X30.19 Y34.723
X30.261 Y34.682
X30.763 Y34.371
X30.828 Y34.328
X31.324 Y33.983
X31.374 Y33.945
X31.828 Y33.591
X31.89 Y33.541
X32.321 Y33.166
X32.386 Y33.109
X32.4 Y33.095
X32.416 Y33.077
X32.43 Y33.06
X32.443 Y33.042
X32.454 Y33.024
X32.457 Y33.019
X32.466 Y33.003
X32.474 Y32.986
X32.481 Y32.97
X32.488 Y32.953
X32.493 Y32.936
X32.498 Y32.918
X32.502 Y32.9
X32.506 Y32.882
X32.508 Y32.865
X32.51 Y32.847
Y32.829
Y32.812
Y32.794
X32.508 Y32.776
X32.506 Y32.758
X32.502 Y32.741
X32.498 Y32.723
X32.493 Y32.705
X32.487 Y32.688
X32.481 Y32.67
X32.47 Y32.646
X32.457 Y32.623
X32.443 Y32.599
X32.431 Y32.582
X32.418 Y32.566
X32.386 Y32.533
X27.479 Y27.626
X27.477 Y27.623
X27.441 Y27.579
X27.44 Y27.577
X27.429 Y27.554
Y27.552
X27.425 Y27.528
Y27.526
X27.428 Y27.502
Y27.499
X27.438 Y27.477
Y27.475
X27.453 Y27.456
X27.455 Y27.454
X27.474 Y27.439
X27.476 Y27.438
X27.499 Y27.428
X27.502
X27.526 Y27.425
X27.528
X27.552 Y27.429
X27.554
X27.577 Y27.44
X27.579 Y27.441
X27.623 Y27.477
X27.626 Y27.479
X32.533 Y32.386
X32.566 Y32.418
X32.582 Y32.431
X32.599 Y32.443
X32.623 Y32.457
X32.646 Y32.47
X32.67 Y32.481
X32.688 Y32.487
X32.705 Y32.493
X32.723 Y32.498
X32.741 Y32.502
X32.758 Y32.506
X32.776 Y32.508
X32.794 Y32.51
X32.812
X32.829
X32.847
X32.865 Y32.508
X32.882 Y32.506
X32.9 Y32.502
X32.918 Y32.498
X32.936 Y32.493
X32.953 Y32.488
X32.97 Y32.481
X32.986 Y32.474
X33.003 Y32.466
X33.019 Y32.457
X33.024 Y32.454
X33.042 Y32.443
X33.06 Y32.43
X33.077 Y32.416
X33.095 Y32.4
X33.109 Y32.386
X33.166 Y32.321
X33.541 Y31.89
X33.591 Y31.828
X33.945 Y31.374
X33.983 Y31.324
X34.328 Y30.828
X34.371 Y30.763
X34.682 Y30.261
X34.723 Y30.19
X35.008 Y29.668
X35.031 Y29.623
X35.303 Y29.056
X35.333 Y28.985
X35.539 Y28.489
X35.568 Y28.418
X35.575 Y28.397
X35.767 Y27.851
X35.788 Y27.794
X35.792 Y27.781
X35.958 Y27.214
X35.978 Y27.143
X35.995 Y27.072
X36.111 Y26.576
X36.128 Y26.505
X36.141 Y26.434
X36.242 Y25.867
X36.253 Y25.797
X36.322 Y25.23
X36.33 Y25.159
X36.374 Y24.521
X36.375 Y24.486
Y24.468
X36.373 Y24.45
X36.371 Y24.432
X36.368 Y24.415
X36.365 Y24.397
X36.36 Y24.379
X36.355 Y24.362
X36.344 Y24.335
X36.332 Y24.308
X36.322 Y24.291
X36.311 Y24.273
X36.299 Y24.255
X36.285 Y24.238
X36.284 Y24.236
X36.267 Y24.217
X36.248 Y24.198
X36.231 Y24.183
X36.213 Y24.169
X36.209 Y24.167
X36.193 Y24.155
X36.176 Y24.145
X36.159 Y24.136
X36.142 Y24.128
X36.124 Y24.121
X36.107 Y24.114
X36.089 Y24.108
X36.071 Y24.104
X36.049 Y24.099
X36.027 Y24.096
X36. Y24.094
X35.929 Y24.093
X29.029
X29.027
X28.967 Y24.087
X28.965
X28.943 Y24.078
X28.941 Y24.077
X28.921 Y24.062
X28.919 Y24.061
X28.904 Y24.042
X28.903 Y24.04
X28.893 Y24.016
Y24.014
X28.889 Y23.99
X28.893 Y23.965
Y23.963
X28.903 Y23.939
X28.904 Y23.938
X28.919 Y23.918
X28.921 Y23.917
X28.941 Y23.902
X28.943 Y23.901
X28.965 Y23.893
X28.967 Y23.892
X29.027 Y23.886
X29.029
X35.929
X36.
X36.027 Y23.883
X36.049 Y23.88
X36.071 Y23.875
X36.089 Y23.871
X36.107 Y23.865
X36.124 Y23.859
X36.142 Y23.851
X36.159 Y23.843
X36.176 Y23.834
X36.193 Y23.824
X36.209 Y23.812
X36.213 Y23.81
X36.231 Y23.796
X36.248 Y23.781
X36.267 Y23.762
X36.284 Y23.743
X36.285 Y23.742
X36.299 Y23.724
X36.311 Y23.706
X36.322 Y23.688
X36.332 Y23.671
X36.344 Y23.644
X36.355 Y23.617
X36.36 Y23.6
X36.365 Y23.582
X36.368 Y23.564
X36.371 Y23.547
X36.373 Y23.529
X36.375 Y23.511
Y23.494
X36.374 Y23.458
X36.33 Y22.82
X36.322 Y22.75
X36.253 Y22.183
X36.242 Y22.112
X36.141 Y21.545
X36.128 Y21.474
X36.071 Y21.233
X35.995 Y20.907
X35.978 Y20.836
X35.958 Y20.765
X35.792 Y20.199
X35.788 Y20.186
X35.767 Y20.128
X35.575 Y19.582
X35.568 Y19.561
X35.539 Y19.49
X35.333 Y18.994
X35.303 Y18.923
X35.031 Y18.356
X35.008 Y18.311
X34.723 Y17.789
X34.682 Y17.719
X34.371 Y17.216
X34.328 Y17.152
X33.983 Y16.656
X33.945 Y16.605
X33.591 Y16.151
X33.541 Y16.089
X33.166 Y15.658
X33.109 Y15.593
X33.095 Y15.579
X33.077 Y15.563
X33.06 Y15.549
X33.042 Y15.536
X33.024 Y15.525
X33.019 Y15.522
X33.003 Y15.513
X32.986 Y15.505
X32.97 Y15.498
X32.953 Y15.492
X32.936 Y15.486
X32.918 Y15.481
X32.9 Y15.477
X32.882 Y15.474
X32.865 Y15.471
X32.847 Y15.47
X32.829 Y15.469
X32.812
X32.794 Y15.47
X32.776 Y15.471
X32.758 Y15.474
X32.741 Y15.477
X32.723 Y15.481
X32.705 Y15.486
X32.688 Y15.492
X32.67 Y15.499
X32.646 Y15.509
X32.623 Y15.522
X32.599 Y15.537
X32.582 Y15.548
X32.566 Y15.562
X32.533 Y15.593
X27.626 Y20.5
X27.623 Y20.502
X27.579 Y20.538
X27.577 Y20.54
X27.554 Y20.55
X27.552
X27.528 Y20.554
X27.526
X27.502 Y20.551
X27.499
X27.476 Y20.541
X27.474 Y20.54
X27.455 Y20.525
X27.453 Y20.523
X27.438 Y20.504
Y20.502
X27.428 Y20.48
Y20.477
X27.425 Y20.454
Y20.451
X27.429 Y20.427
Y20.425
X27.44 Y20.402
X27.441 Y20.4
X27.477 Y20.356
X27.479 Y20.354
X32.386 Y15.446
X32.418 Y15.413
X32.431 Y15.397
X32.443 Y15.38
X32.457 Y15.357
X32.47 Y15.333
X32.481 Y15.309
X32.487 Y15.292
X32.493 Y15.274
X32.498 Y15.256
X32.502 Y15.238
X32.506 Y15.221
X32.508 Y15.203
X32.51 Y15.185
Y15.168
Y15.15
Y15.132
X32.508 Y15.114
X32.506 Y15.097
X32.502 Y15.079
X32.498 Y15.061
X32.493 Y15.044
X32.488 Y15.026
X32.481 Y15.009
X32.474 Y14.993
X32.466 Y14.977
X32.457 Y14.96
X32.454 Y14.955
X32.443 Y14.937
X32.43 Y14.92
X32.416 Y14.902
X32.4 Y14.884
X32.386 Y14.87
X32.321 Y14.813
X31.89 Y14.438
X31.828 Y14.388
X31.374 Y14.034
X31.324 Y13.996
X30.828 Y13.651
X30.763 Y13.609
X30.261 Y13.297
X30.19 Y13.257
X29.668 Y12.971
X29.623 Y12.948
X29.056 Y12.676
X28.985 Y12.646
X28.489 Y12.441
X28.418 Y12.411
X28.397 Y12.404
X27.851 Y12.212
X27.794 Y12.191
X27.781 Y12.187
X27.214 Y12.022
X27.143 Y12.001
X27.072 Y11.984
X26.576 Y11.868
X26.505 Y11.851
X26.434 Y11.838
X25.867 Y11.737
X25.797 Y11.727
X25.23 Y11.657
X25.159 Y11.649
X24.521 Y11.605
X24.486 Y11.604
X24.468
X24.45 Y11.606
X24.432 Y11.608
X24.415 Y11.611
X24.397 Y11.615
X24.379 Y11.619
X24.362 Y11.625
X24.335 Y11.635
X24.308 Y11.647
X24.291 Y11.657
X24.273 Y11.668
X24.255 Y11.68
X24.238 Y11.694
X24.236 Y11.695
X24.217 Y11.712
X24.198 Y11.731
X24.183 Y11.749
X24.169 Y11.766
X24.167 Y11.77
X24.155 Y11.787
X24.145 Y11.803
X24.136 Y11.82
X24.128 Y11.837
X24.121 Y11.855
X24.114 Y11.873
X24.108 Y11.89
X24.104 Y11.908
X24.099 Y11.93
X24.096 Y11.952
X24.094 Y11.979
X24.093 Y12.05
Y18.95
Y18.952
X24.087 Y19.012
Y19.014
X24.078 Y19.036
X24.077 Y19.038
X24.062 Y19.059
X24.061 Y19.06
X24.042 Y19.075
X24.04 Y19.076
X24.016 Y19.086
X24.014
X23.99 Y19.09
X23.965 Y19.086
X23.963
X23.939 Y19.076
X23.938 Y19.075
X23.918 Y19.06
X23.917 Y19.059
X23.902 Y19.038
X23.901 Y19.036
X23.893 Y19.014
X23.892 Y19.012
X23.886 Y18.952
Y18.95
Y12.05
Y11.979
X23.883 Y11.952
X23.88 Y11.93
X23.875 Y11.908
X23.871 Y11.89
X23.865 Y11.873
X23.859 Y11.855
X23.851 Y11.837
X23.843 Y11.82
X23.834 Y11.803
X23.824 Y11.787
X23.812 Y11.77
X23.81 Y11.766
X23.796 Y11.749
X23.781 Y11.731
X23.762 Y11.712
X23.743 Y11.695
X23.742 Y11.694
X23.724 Y11.68
X23.706 Y11.668
X23.688 Y11.657
X23.671 Y11.647
X23.644 Y11.635
X23.617 Y11.625
X23.6 Y11.619
X23.582 Y11.615
X23.564 Y11.611
X23.547 Y11.608
X23.529 Y11.606
X23.511 Y11.604
X23.494
X23.458 Y11.605
X22.82 Y11.649
X22.75 Y11.657
X22.183 Y11.727
X22.112 Y11.737
X21.545 Y11.838
X21.474 Y11.851
X21.233 Y11.908
X20.907 Y11.984
X20.836 Y12.001
X20.765 Y12.022
X20.199 Y12.187
X20.186 Y12.191
X20.128 Y12.212
X19.582 Y12.404
X19.561 Y12.411
X19.49 Y12.441
X18.994 Y12.646
X18.923 Y12.676
X18.356 Y12.948
X18.311 Y12.971
X17.789 Y13.257
X17.719 Y13.297
X17.216 Y13.609
X17.152 Y13.651
X16.656 Y13.996
X16.605 Y14.034
X16.151 Y14.388
X16.089 Y14.438
X15.658 Y14.813
X15.593 Y14.87
X15.579 Y14.884
X15.563 Y14.902
X15.549 Y14.92
X15.536 Y14.937
X15.525 Y14.955
X15.522 Y14.96
X15.513 Y14.977
X15.505 Y14.993
X15.498 Y15.009
X15.492 Y15.026
X15.486 Y15.044
X15.481 Y15.061
X15.477 Y15.079
X15.474 Y15.097
X15.471 Y15.114
X15.47 Y15.132
X15.469 Y15.15
Y15.168
X15.47 Y15.185
X15.471 Y15.203
X15.474 Y15.221
X15.477 Y15.238
X15.481 Y15.256
X15.486 Y15.274
X15.492 Y15.292
X15.499 Y15.309
X15.509 Y15.333
X15.522 Y15.357
X15.537 Y15.38
X15.548 Y15.397
X15.562 Y15.413
X15.593 Y15.446
X20.5 Y20.354
X20.502 Y20.356
X20.538 Y20.4
X20.54 Y20.402
X20.55 Y20.425
Y20.427
X20.554 Y20.451
Y20.454
X20.551 Y20.477
Y20.48
X20.542 Y20.502
X20.541 Y20.504
X20.526 Y20.523
X20.524 Y20.525
X20.505 Y20.54
X20.503 Y20.541
X20.48 Y20.551
X20.477
X20.454 Y20.554
X20.451
X20.427 Y20.55
X20.425
X20.402 Y20.54
X20.4 Y20.538
X20.356 Y20.502
X20.354 Y20.5
X15.446 Y15.593
X15.413 Y15.562
X15.397 Y15.548
X15.38 Y15.537
X15.357 Y15.522
X15.333 Y15.509
X15.309 Y15.499
X15.292 Y15.492
X15.274 Y15.486
X15.256 Y15.481
X15.238 Y15.477
X15.221 Y15.474
X15.203 Y15.471
X15.185 Y15.47
X15.168 Y15.469
X15.15
X15.132 Y15.47
X15.114 Y15.471
X15.097 Y15.474
X15.079 Y15.477
X15.061 Y15.481
X15.044 Y15.486
X15.026 Y15.492
X15.009 Y15.498
X14.993 Y15.505
X14.977 Y15.513
X14.96 Y15.522
X14.955 Y15.525
X14.937 Y15.536
X14.92 Y15.549
X14.902 Y15.563
X14.884 Y15.579
X14.87 Y15.593
X14.813 Y15.658
X14.438 Y16.089
X14.388 Y16.151
X14.034 Y16.605
X13.996 Y16.656
X13.651 Y17.152
X13.609 Y17.216
X13.297 Y17.719
X13.257 Y17.789
X12.971 Y18.311
X12.948 Y18.356
X12.676 Y18.923
X12.646 Y18.994
X12.441 Y19.49
X12.411 Y19.561
X12.404 Y19.582
X12.212 Y20.128
X12.191 Y20.186
X12.187 Y20.199
X12.022 Y20.765
X12.001 Y20.836
X11.984 Y20.907
X11.868 Y21.403
X11.851 Y21.474
X11.838 Y21.545
X11.737 Y22.112
X11.727 Y22.183
X11.657 Y22.75
X11.649 Y22.82
X11.625 Y23.174
X11.605 Y23.458
X11.604 Y23.494
Y23.511
X11.606 Y23.529
X11.608 Y23.547
X11.611 Y23.564
X11.615 Y23.582
X11.619 Y23.6
X11.625 Y23.617
X11.635 Y23.644
X11.647 Y23.671
X11.657 Y23.688
X11.668 Y23.706
X11.68 Y23.724
X11.694 Y23.742
X11.695 Y23.743
X11.712 Y23.762
X11.731 Y23.781
X11.749 Y23.796
X11.766 Y23.81
X11.77 Y23.812
X11.787 Y23.824
X11.803 Y23.834
X11.82 Y23.843
X11.837 Y23.851
X11.855 Y23.859
X11.873 Y23.865
X11.89 Y23.871
X11.908 Y23.875
X11.93 Y23.88
X11.952 Y23.883
X11.979 Y23.886
X12.05
X16.624
X18.95
X18.952
X19.012 Y23.892
X19.014 Y23.893
X19.036 Y23.901
X19.038 Y23.902
X19.059 Y23.917
X19.06 Y23.918
X19.075 Y23.938
X19.076 Y23.939
X19.086 Y23.963
Y23.965
X19.09 Y23.99
X19.086 Y24.014
Y24.016
X19.076 Y24.04
X19.075 Y24.042
X19.06 Y24.061
X19.059 Y24.062
X19.038 Y24.077
X19.036 Y24.078
X19.014 Y24.087
X19.012
X18.952 Y24.093
X18.95
X16.088
X16.057
X16.026
X15.964
X15.841 Z-0.451
X15.717 Z-0.452
X15.593 Z-0.454
X15.469 Z-0.456
X15.346 Z-0.458
X15.222 Z-0.461
X15.098 Z-0.464
X14.974 Z-0.468
X14.851 Z-0.471
X14.727 Z-0.475
X14.603 Z-0.48
X12.004 Z-0.57
X11.974 Y24.094 Z-0.572
X11.943 Y24.097 Z-0.573
X11.912 Y24.103 Z-0.574
X11.882 Y24.111 Z-0.575
X11.853 Y24.121 Z-0.576
X11.825 Y24.134 Z-0.577
X11.798 Y24.148 Z-0.578
X11.772 Y24.165 Z-0.579
X11.747 Y24.184 Z-0.58
X11.724 Y24.205 Z-0.581
X11.703 Y24.227 Z-0.582
X11.683 Y24.251
X11.666 Y24.276 Z-0.583
X11.65 Y24.303 Z-0.584
X11.637 Y24.331 Z-0.585
X11.625 Y24.36 Z-0.586
X11.617 Y24.389 Z-0.587
X11.61 Y24.42 Z-0.588
X11.606 Y24.45
X11.604 Y24.481 Z-0.589
Y24.512 Z-0.59
X11.607 Y24.543
X11.611 Y24.605 Z-0.592
X11.619 Y24.728 Z-0.594
X11.628 Y24.852 Z-0.596
X11.636 Y24.975 Z-0.598
X11.645 Y25.099 Z-0.599
X11.656 Y25.222 Z-0.6
X11.663 Y25.28
X11.668 Y25.324
X11.67 Y25.339
X11.727 Y25.797
X11.737 Y25.867
X11.838 Y26.434
X11.851 Y26.505
X11.908 Y26.746
X11.984 Y27.072
X12.001 Y27.143
X12.022 Y27.214
X12.187 Y27.781
X12.191 Y27.794
X12.212 Y27.851
X12.404 Y28.397
X12.411 Y28.418
X12.441 Y28.489
X12.646 Y28.985
X12.676 Y29.056
X12.948 Y29.623
X12.971 Y29.668
X13.257 Y30.19
X13.297 Y30.261
X13.609 Y30.763
X13.651 Y30.828
X13.996 Y31.324
X14.034 Y31.374
X14.388 Y31.828
X14.438 Y31.89
X14.813 Y32.321
X14.87 Y32.386
X14.884 Y32.4
X14.902 Y32.416
X14.92 Y32.43
X14.937 Y32.443
X14.955 Y32.454
X14.96 Y32.457
X14.977 Y32.466
X14.993 Y32.474
X15.009 Y32.481
X15.026 Y32.488
X15.044 Y32.493
X15.061 Y32.498
X15.079 Y32.502
X15.097 Y32.506
X15.114 Y32.508
X15.132 Y32.51
X15.15
X15.168
X15.185
X15.203 Y32.508
X15.221 Y32.506
X15.238 Y32.502
X15.256 Y32.498
X15.274 Y32.493
X15.292 Y32.487
X15.309 Y32.481
X15.333 Y32.47
X15.357 Y32.457
X15.38 Y32.443
X15.397 Y32.431
X15.413 Y32.418
X15.446 Y32.386
X20.354 Y27.479
X20.356 Y27.477
X20.4 Y27.441
X20.402 Y27.44
X20.425 Y27.429
X20.427
X20.451 Y27.425
X20.454
X20.477 Y27.428
X20.48
X20.503 Y27.438
X20.505 Y27.439
X20.524 Y27.454
X20.526 Y27.456
X20.541 Y27.475
X20.542 Y27.477
X20.551 Y27.499
Y27.502
X20.554 Y27.526
Y27.528
X20.55 Y27.552
Y27.554
X20.54 Y27.577
X20.538 Y27.579
X20.502 Y27.623
X20.5 Y27.626
X15.593 Y32.533
X15.562 Y32.566
X15.548 Y32.582
X15.537 Y32.599
X15.522 Y32.623
X15.509 Y32.646
X15.499 Y32.67
X15.492 Y32.688
X15.486 Y32.705
X15.481 Y32.723
X15.477 Y32.741
X15.474 Y32.758
X15.471 Y32.776
X15.47 Y32.794
X15.469 Y32.812
Y32.829
X15.47 Y32.847
X15.471 Y32.865
X15.474 Y32.882
X15.477 Y32.9
X15.481 Y32.918
X15.486 Y32.936
X15.492 Y32.953
X15.498 Y32.97
X15.505 Y32.986
X15.513 Y33.003
X15.522 Y33.019
X15.525 Y33.024
X15.536 Y33.042
X15.549 Y33.06
X15.563 Y33.077
X15.579 Y33.095
X15.593 Y33.109
X15.658 Y33.166
X16.089 Y33.541
X16.151 Y33.591
X16.605 Y33.945
X16.656 Y33.983
X17.152 Y34.328
X17.216 Y34.371
X17.719 Y34.682
X17.789 Y34.723
X18.311 Y35.008
X18.356 Y35.031
X18.923 Y35.303
X18.994 Y35.333
X19.49 Y35.539
X19.561 Y35.568
X19.582 Y35.575
X20.128 Y35.767
X20.186 Y35.788
X20.199 Y35.792
X20.765 Y35.958
X20.836 Y35.978
X20.907 Y35.995
X21.403 Y36.111
X21.474 Y36.128
X21.545 Y36.141
X22.112 Y36.242
X22.183 Y36.253
X22.75 Y36.322
X22.82 Y36.33
X23.458 Y36.374
X23.494 Y36.375
X23.511
X23.529 Y36.373
X23.547 Y36.371
X23.564 Y36.368
X23.582 Y36.365
X23.6 Y36.36
X23.617 Y36.355
X23.644 Y36.344
X23.671 Y36.332
X23.688 Y36.322
X23.706 Y36.311
X23.724 Y36.299
X23.742 Y36.285
X23.743 Y36.284
X23.762 Y36.267
X23.781 Y36.248
X23.796 Y36.231
X23.81 Y36.213
X23.812 Y36.209
X23.824 Y36.193
X23.834 Y36.176
X23.843 Y36.159
X23.851 Y36.142
X23.859 Y36.124
X23.865 Y36.107
X23.871 Y36.089
X23.875 Y36.071
X23.88 Y36.049
X23.883 Y36.027
X23.886 Y36.
Y35.929
Y29.029
Y29.027
X23.892 Y28.967
X23.893 Y28.965
X23.901 Y28.943
X23.902 Y28.941
X23.917 Y28.921
X23.918 Y28.919
X23.938 Y28.904
X23.939 Y28.903
X23.963 Y28.893
X23.965
X23.99 Y28.889
X24.014 Y28.893
X24.016
X24.04 Y28.903
X24.042 Y28.904
X24.061 Y28.919
X24.062 Y28.921
X24.077 Y28.941
X24.078 Y28.943
X24.087 Y28.965
Y28.967
X24.093 Y29.027
Y29.029
Y35.929
X24.094 Y36.
X24.096 Y36.027
X24.099 Y36.049
X24.104 Y36.071
X24.108 Y36.089
X24.114 Y36.107
X24.121 Y36.124
X24.128 Y36.142
X24.136 Y36.159
X24.145 Y36.176
X24.155 Y36.193
X24.167 Y36.209
X24.169 Y36.213
X24.183 Y36.231
X24.198 Y36.248
X24.217 Y36.267
X24.236 Y36.284
X24.238 Y36.285
X24.255 Y36.299
X24.273 Y36.311
X24.291 Y36.322
X24.308 Y36.332
X24.335 Y36.344
X24.362 Y36.355
X24.379 Y36.36
X24.397 Y36.365
X24.415 Y36.368
X24.432 Y36.371
X24.45 Y36.373
X24.468 Y36.375
X24.486
X24.521 Y36.374
X25.159 Y36.33
X25.23 Y36.322
X25.797 Y36.253
X25.867 Y36.242
X26.434 Y36.141
X26.505 Y36.128
X26.746 Y36.071
X27.072 Y35.995
X27.143 Y35.978
X27.214 Y35.958
X27.781 Y35.792
X27.794 Y35.788
X27.851 Y35.767
X28.397 Y35.575
X28.418 Y35.568
X28.489 Y35.539
X28.985 Y35.333
X29.056 Y35.303
X29.623 Y35.031
X29.668 Y35.008
X30.19 Y34.723
X30.261 Y34.682
X30.763 Y34.371
X30.828 Y34.328
X31.324 Y33.983
X31.374 Y33.945
X31.828 Y33.591
X31.89 Y33.541
X32.321 Y33.166
X32.386 Y33.109
X32.4 Y33.095
X32.416 Y33.077
X32.43 Y33.06
X32.443 Y33.042
X32.454 Y33.024
X32.457 Y33.019
X32.466 Y33.003
X32.474 Y32.986
X32.481 Y32.97
X32.488 Y32.953
X32.493 Y32.936
X32.498 Y32.918
X32.502 Y32.9
X32.506 Y32.882
X32.508 Y32.865
X32.51 Y32.847
Y32.829
Y32.812
Y32.794
X32.508 Y32.776
X32.506 Y32.758
X32.502 Y32.741
X32.498 Y32.723
X32.493 Y32.705
X32.487 Y32.688
X32.481 Y32.67
X32.47 Y32.646
X32.457 Y32.623
X32.443 Y32.599
X32.431 Y32.582
X32.418 Y32.566
X32.386 Y32.533
X27.479 Y27.626
X27.477 Y27.623
X27.441 Y27.579
X27.44 Y27.577
X27.429 Y27.554
Y27.552
X27.425 Y27.528
Y27.526
X27.428 Y27.502
Y27.499
X27.438 Y27.477
Y27.475
X27.453 Y27.456
X27.455 Y27.454
X27.474 Y27.439
X27.476 Y27.438
X27.499 Y27.428
X27.502
X27.526 Y27.425
X27.528
X27.552 Y27.429
X27.554
X27.577 Y27.44
X27.579 Y27.441
X27.623 Y27.477
X27.626 Y27.479
X32.533 Y32.386
X32.566 Y32.418
X32.582 Y32.431
X32.599 Y32.443
X32.623 Y32.457
X32.646 Y32.47
X32.67 Y32.481
X32.688 Y32.487
X32.705 Y32.493
X32.723 Y32.498
X32.741 Y32.502
X32.758 Y32.506
X32.776 Y32.508
X32.794 Y32.51
X32.812
X32.829
X32.847
X32.865 Y32.508
X32.882 Y32.506
X32.9 Y32.502
X32.918 Y32.498
X32.936 Y32.493
X32.953 Y32.488
X32.97 Y32.481
X32.986 Y32.474
X33.003 Y32.466
X33.019 Y32.457
X33.024 Y32.454
X33.042 Y32.443
X33.06 Y32.43
X33.077 Y32.416
X33.095 Y32.4
X33.109 Y32.386
X33.166 Y32.321
X33.541 Y31.89
X33.591 Y31.828
X33.945 Y31.374
X33.983 Y31.324
X34.328 Y30.828
X34.371 Y30.763
X34.682 Y30.261
X34.723 Y30.19
X35.008 Y29.668
X35.031 Y29.623
X35.303 Y29.056
X35.333 Y28.985
X35.539 Y28.489
X35.568 Y28.418
X35.575 Y28.397
X35.767 Y27.851
X35.788 Y27.794
X35.792 Y27.781
X35.958 Y27.214
X35.978 Y27.143
X35.995 Y27.072
X36.111 Y26.576
X36.128 Y26.505
X36.141 Y26.434
X36.242 Y25.867
X36.253 Y25.797
X36.322 Y25.23
X36.33 Y25.159
X36.374 Y24.521
X36.375 Y24.486
Y24.468
X36.373 Y24.45
X36.371 Y24.432
X36.368 Y24.415
X36.365 Y24.397
X36.36 Y24.379
X36.355 Y24.362
X36.344 Y24.335
X36.332 Y24.308
X36.322 Y24.291
X36.311 Y24.273
X36.299 Y24.255
X36.285 Y24.238
X36.284 Y24.236
X36.267 Y24.217
X36.248 Y24.198
X36.231 Y24.183
X36.213 Y24.169
X36.209 Y24.167
X36.193 Y24.155
X36.176 Y24.145
X36.159 Y24.136
X36.142 Y24.128
X36.124 Y24.121
X36.107 Y24.114
X36.089 Y24.108
X36.071 Y24.104
X36.049 Y24.099
X36.027 Y24.096
X36. Y24.094
X35.929 Y24.093
X29.029
X29.027
X28.967 Y24.087
X28.965
X28.943 Y24.078
X28.941 Y24.077
X28.921 Y24.062
X28.919 Y24.061
X28.904 Y24.042
X28.903 Y24.04
X28.893 Y24.016
Y24.014
X28.889 Y23.99
X28.893 Y23.965
Y23.963
X28.903 Y23.939
X28.904 Y23.938
X28.919 Y23.918
X28.921 Y23.917
X28.941 Y23.902
X28.943 Y23.901
X28.965 Y23.893
X28.967 Y23.892
X29.027 Y23.886
X29.029
X35.929
X36.
X36.027 Y23.883
X36.049 Y23.88
X36.071 Y23.875
X36.089 Y23.871
X36.107 Y23.865
X36.124 Y23.859
X36.142 Y23.851
X36.159 Y23.843
X36.176 Y23.834
X36.193 Y23.824
X36.209 Y23.812
X36.213 Y23.81
X36.231 Y23.796
X36.248 Y23.781
X36.267 Y23.762
X36.284 Y23.743
X36.285 Y23.742
X36.299 Y23.724
X36.311 Y23.706
X36.322 Y23.688
X36.332 Y23.671
X36.344 Y23.644
X36.355 Y23.617
X36.36 Y23.6
X36.365 Y23.582
X36.368 Y23.564
X36.371 Y23.547
X36.373 Y23.529
X36.375 Y23.511
Y23.494
X36.374 Y23.458
X36.33 Y22.82
X36.322 Y22.75
X36.253 Y22.183
X36.242 Y22.112
X36.141 Y21.545
X36.128 Y21.474
X36.071 Y21.233
X35.995 Y20.907
X35.978 Y20.836
X35.958 Y20.765
X35.792 Y20.199
X35.788 Y20.186
X35.767 Y20.128
X35.575 Y19.582
X35.568 Y19.561
X35.539 Y19.49
X35.333 Y18.994
X35.303 Y18.923
X35.031 Y18.356
X35.008 Y18.311
X34.723 Y17.789
X34.682 Y17.719
X34.371 Y17.216
X34.328 Y17.152
X33.983 Y16.656
X33.945 Y16.605
X33.591 Y16.151
X33.541 Y16.089
X33.166 Y15.658
X33.109 Y15.593
X33.095 Y15.579
X33.077 Y15.563
X33.06 Y15.549
X33.042 Y15.536
X33.024 Y15.525
X33.019 Y15.522
X33.003 Y15.513
X32.986 Y15.505
X32.97 Y15.498
X32.953 Y15.492
X32.936 Y15.486
X32.918 Y15.481
X32.9 Y15.477
X32.882 Y15.474
X32.865 Y15.471
X32.847 Y15.47
X32.829 Y15.469
X32.812
X32.794 Y15.47
X32.776 Y15.471
X32.758 Y15.474
X32.741 Y15.477
X32.723 Y15.481
X32.705 Y15.486
X32.688 Y15.492
X32.67 Y15.499
X32.646 Y15.509
X32.623 Y15.522
X32.599 Y15.537
X32.582 Y15.548
X32.566 Y15.562
X32.533 Y15.593
X27.626 Y20.5
X27.623 Y20.502
X27.579 Y20.538
X27.577 Y20.54
X27.554 Y20.55
X27.552
X27.528 Y20.554
X27.526
X27.502 Y20.551
X27.499
X27.476 Y20.541
X27.474 Y20.54
X27.455 Y20.525
X27.453 Y20.523
X27.438 Y20.504
Y20.502
X27.428 Y20.48
Y20.477
X27.425 Y20.454
Y20.451
X27.429 Y20.427
Y20.425
X27.44 Y20.402
X27.441 Y20.4
X27.477 Y20.356
X27.479 Y20.354
X32.386 Y15.446
X32.418 Y15.413
X32.431 Y15.397
X32.443 Y15.38
X32.457 Y15.357
X32.47 Y15.333
X32.481 Y15.309
X32.487 Y15.292
X32.493 Y15.274
X32.498 Y15.256
X32.502 Y15.238
X32.506 Y15.221
X32.508 Y15.203
X32.51 Y15.185
Y15.168
Y15.15
Y15.132
X32.508 Y15.114
X32.506 Y15.097
X32.502 Y15.079
X32.498 Y15.061
X32.493 Y15.044
X32.488 Y15.026
X32.481 Y15.009
X32.474 Y14.993
X32.466 Y14.977
X32.457 Y14.96
X32.454 Y14.955
X32.443 Y14.937
X32.43 Y14.92
X32.416 Y14.902
X32.4 Y14.884
X32.386 Y14.87
X32.321 Y14.813
X31.89 Y14.438
X31.828 Y14.388
X31.374 Y14.034
X31.324 Y13.996
X30.828 Y13.651
X30.763 Y13.609
X30.261 Y13.297
X30.19 Y13.257
X29.668 Y12.971
X29.623 Y12.948
X29.056 Y12.676
X28.985 Y12.646
X28.489 Y12.441
X28.418 Y12.411
X28.397 Y12.404
X27.851 Y12.212
X27.794 Y12.191
X27.781 Y12.187
X27.214 Y12.022
X27.143 Y12.001
X27.072 Y11.984
X26.576 Y11.868
X26.505 Y11.851
X26.434 Y11.838
X25.867 Y11.737
X25.797 Y11.727
X25.23 Y11.657
X25.159 Y11.649
X24.521 Y11.605
X24.486 Y11.604
X24.468
X24.45 Y11.606
X24.432 Y11.608
X24.415 Y11.611
X24.397 Y11.615
X24.379 Y11.619
X24.362 Y11.625
X24.335 Y11.635
X24.308 Y11.647
X24.291 Y11.657
X24.273 Y11.668
X24.255 Y11.68
X24.238 Y11.694
X24.236 Y11.695
X24.217 Y11.712
X24.198 Y11.731
X24.183 Y11.749
X24.169 Y11.766
X24.167 Y11.77
X24.155 Y11.787
X24.145 Y11.803
X24.136 Y11.82
X24.128 Y11.837
X24.121 Y11.855
X24.114 Y11.873
X24.108 Y11.89
X24.104 Y11.908
X24.099 Y11.93
X24.096 Y11.952
X24.094 Y11.979
X24.093 Y12.05
Y18.95
Y18.952
X24.087 Y19.012
Y19.014
X24.078 Y19.036
X24.077 Y19.038
X24.062 Y19.059
X24.061 Y19.06
X24.042 Y19.075
X24.04 Y19.076
X24.016 Y19.086
X24.014
X23.99 Y19.09
X23.965 Y19.086
X23.963
X23.939 Y19.076
X23.938 Y19.075
X23.918 Y19.06
X23.917 Y19.059
X23.902 Y19.038
X23.901 Y19.036
X23.893 Y19.014
X23.892 Y19.012
X23.886 Y18.952
Y18.95
Y12.05
Y11.979
X23.883 Y11.952
X23.88 Y11.93
X23.875 Y11.908
X23.871 Y11.89
X23.865 Y11.873
X23.859 Y11.855
X23.851 Y11.837
X23.843 Y11.82
X23.834 Y11.803
X23.824 Y11.787
X23.812 Y11.77
X23.81 Y11.766
X23.796 Y11.749
X23.781 Y11.731
X23.762 Y11.712
X23.743 Y11.695
X23.742 Y11.694
X23.724 Y11.68
X23.706 Y11.668
X23.688 Y11.657
X23.671 Y11.647
X23.644 Y11.635
X23.617 Y11.625
X23.6 Y11.619
X23.582 Y11.615
X23.564 Y11.611
X23.547 Y11.608
X23.529 Y11.606
X23.511 Y11.604
X23.494
X23.458 Y11.605
X22.82 Y11.649
X22.75 Y11.657
X22.183 Y11.727
X22.112 Y11.737
X21.545 Y11.838
X21.474 Y11.851
X21.233 Y11.908
X20.907 Y11.984
X20.836 Y12.001
X20.765 Y12.022
X20.199 Y12.187
X20.186 Y12.191
X20.128 Y12.212
X19.582 Y12.404
X19.561 Y12.411
X19.49 Y12.441
X18.994 Y12.646
X18.923 Y12.676
X18.356 Y12.948
X18.311 Y12.971
X17.789 Y13.257
X17.719 Y13.297
X17.216 Y13.609
X17.152 Y13.651
X16.656 Y13.996
X16.605 Y14.034
X16.151 Y14.388
X16.089 Y14.438
X15.658 Y14.813
X15.593 Y14.87
X15.579 Y14.884
X15.563 Y14.902
X15.549 Y14.92
X15.536 Y14.937
X15.525 Y14.955
X15.522 Y14.96
X15.513 Y14.977
X15.505 Y14.993
X15.498 Y15.009
X15.492 Y15.026
X15.486 Y15.044
X15.481 Y15.061
X15.477 Y15.079
X15.474 Y15.097
X15.471 Y15.114
X15.47 Y15.132
X15.469 Y15.15
Y15.168
X15.47 Y15.185
X15.471 Y15.203
X15.474 Y15.221
X15.477 Y15.238
X15.481 Y15.256
X15.486 Y15.274
X15.492 Y15.292
X15.499 Y15.309
X15.509 Y15.333
X15.522 Y15.357
X15.537 Y15.38
X15.548 Y15.397
X15.562 Y15.413
X15.593 Y15.446
X20.5 Y20.354
X20.502 Y20.356
X20.538 Y20.4
X20.54 Y20.402
X20.55 Y20.425
Y20.427
X20.554 Y20.451
Y20.454
X20.551 Y20.477
Y20.48
X20.542 Y20.502
X20.541 Y20.504
X20.526 Y20.523
X20.524 Y20.525
X20.505 Y20.54
X20.503 Y20.541
X20.48 Y20.551
X20.477
X20.454 Y20.554
X20.451
X20.427 Y20.55
X20.425
X20.402 Y20.54
X20.4 Y20.538
X20.356 Y20.502
X20.354 Y20.5
X15.446 Y15.593
X15.413 Y15.562
X15.397 Y15.548
X15.38 Y15.537
X15.357 Y15.522
X15.333 Y15.509
X15.309 Y15.499
X15.292 Y15.492
X15.274 Y15.486
X15.256 Y15.481
X15.238 Y15.477
X15.221 Y15.474
X15.203 Y15.471
X15.185 Y15.47
X15.168 Y15.469
X15.15
X15.132 Y15.47
X15.114 Y15.471
X15.097 Y15.474
X15.079 Y15.477
X15.061 Y15.481
X15.044 Y15.486
X15.026 Y15.492
X15.009 Y15.498
X14.993 Y15.505
X14.977 Y15.513
X14.96 Y15.522
X14.955 Y15.525
X14.937 Y15.536
X14.92 Y15.549
X14.902 Y15.563
X14.884 Y15.579
X14.87 Y15.593
X14.813 Y15.658
X14.438 Y16.089
X14.388 Y16.151
X14.034 Y16.605
X13.996 Y16.656
X13.651 Y17.152
X13.609 Y17.216
X13.297 Y17.719
X13.257 Y17.789
X12.971 Y18.311
X12.948 Y18.356
X12.676 Y18.923
X12.646 Y18.994
X12.441 Y19.49
X12.411 Y19.561
X12.404 Y19.582
X12.212 Y20.128
X12.191 Y20.186
X12.187 Y20.199
X12.022 Y20.765
X12.001 Y20.836
X11.984 Y20.907
X11.868 Y21.403
X11.851 Y21.474
X11.838 Y21.545
X11.737 Y22.112
X11.727 Y22.183
X11.657 Y22.75
X11.649 Y22.82
X11.625 Y23.174
X11.605 Y23.458
X11.604 Y23.494
Y23.511
X11.606 Y23.529
X11.608 Y23.547
X11.611 Y23.564
X11.615 Y23.582
X11.619 Y23.6
X11.625 Y23.617
X11.635 Y23.644
X11.647 Y23.671
X11.657 Y23.688
X11.668 Y23.706
X11.68 Y23.724
X11.694 Y23.742
X11.695 Y23.743
X11.712 Y23.762
X11.731 Y23.781
X11.749 Y23.796
X11.766 Y23.81
X11.77 Y23.812
X11.787 Y23.824
X11.803 Y23.834
X11.82 Y23.843
X11.837 Y23.851
X11.855 Y23.859
X11.873 Y23.865
X11.89 Y23.871
X11.908 Y23.875
X11.93 Y23.88
X11.952 Y23.883
X11.979 Y23.886
X12.05
X18.95
X18.952
X19.012 Y23.892
X19.014 Y23.893
X19.036 Y23.901
X19.038 Y23.902
X19.059 Y23.917
X19.06 Y23.918
X19.075 Y23.938
X19.076 Y23.939
X19.086 Y23.963
Y23.965
X19.09 Y23.99
X19.086 Y24.014
Y24.016
X19.076 Y24.04
X19.075 Y24.042
X19.06 Y24.061
X19.059 Y24.062
X19.038 Y24.077
X19.036 Y24.078
X19.014 Y24.087
X19.012
X18.952 Y24.093
X18.95
X12.05
X11.979 Y24.094
X11.952 Y24.096
X11.93 Y24.099
X11.908 Y24.104
X11.89 Y24.108
X11.873 Y24.114
X11.855 Y24.121
X11.837 Y24.128
X11.82 Y24.136
X11.803 Y24.145
X11.787 Y24.155
X11.77 Y24.167
X11.766 Y24.169
X11.749 Y24.183
X11.731 Y24.198
X11.712 Y24.217
X11.695 Y24.236
X11.694 Y24.238
X11.68 Y24.255
X11.668 Y24.273
X11.657 Y24.291
X11.647 Y24.308
X11.635 Y24.335
X11.625 Y24.362
X11.619 Y24.379
X11.615 Y24.397
X11.611 Y24.415
X11.608 Y24.432
X11.606 Y24.45
X11.604 Y24.468
Y24.486
X11.605 Y24.521
X11.649 Y25.159
X11.657 Y25.23
X11.67 Y25.339
X11.674 Y25.37
X11.678 Y25.4
X11.685 Y25.462
X11.701 Y25.585 Z-0.601
X11.716 Y25.707 Z-0.602
X11.731 Y25.83 Z-0.604
X11.752 Y25.952 Z-0.606
X11.774 Y26.074 Z-0.608
X11.796 Y26.196 Z-0.611
X11.817 Y26.318 Z-0.614
X11.839 Y26.439 Z-0.618
X11.864 Y26.561 Z-0.621
X11.893 Y26.681 Z-0.625
X11.921 Y26.802 Z-0.63
X11.978 Y27.042 Z-0.638
X12.007 Y27.163 Z-0.643
X12.18 Y27.757 Z-0.664
X12.22 Y27.874 Z-0.669
X12.384 Y28.341 Z-0.686
X12.427 Y28.457 Z-0.69
X12.664 Y29.028 Z-0.712
X12.717 Y29.14 Z-0.716
X12.77 Y29.252 Z-0.72
X12.824 Y29.364 Z-0.725
X12.877 Y29.475 Z-0.729
X12.931 Y29.587 Z-0.732
X12.987 Y29.697 Z-0.736
X13.046 Y29.806 Z-0.739
X13.106 Y29.914 Z-0.742
X13.165 Y30.023 Z-0.744
X13.224 Y30.131 Z-0.746
X13.284 Y30.24 Z-0.748
X13.349 Y30.345 Z-0.749
X13.415 Y30.45 Z-0.75
X13.446 Y30.5
X13.469 Y30.538
X13.477 Y30.55
X13.609 Y30.763
X13.651 Y30.828
X13.996 Y31.324
X14.034 Y31.374
X14.388 Y31.828
X14.438 Y31.89
X14.813 Y32.321
X14.87 Y32.386
X14.884 Y32.4
X14.902 Y32.416
X14.92 Y32.43
X14.937 Y32.443
X14.955 Y32.454
X14.96 Y32.457
X14.977 Y32.466
X14.993 Y32.474
X15.009 Y32.481
X15.026 Y32.488
X15.044 Y32.493
X15.061 Y32.498
X15.079 Y32.502
X15.097 Y32.506
X15.114 Y32.508
X15.132 Y32.51
X15.15
X15.168
X15.185
X15.203 Y32.508
X15.221 Y32.506
X15.238 Y32.502
X15.256 Y32.498
X15.274 Y32.493
X15.292 Y32.487
X15.309 Y32.481
X15.333 Y32.47
X15.357 Y32.457
X15.38 Y32.443
X15.397 Y32.431
X15.413 Y32.418
X15.446 Y32.386
X20.354 Y27.479
X20.356 Y27.477
X20.4 Y27.441
X20.402 Y27.44
X20.425 Y27.429
X20.427
X20.451 Y27.425
X20.454
X20.477 Y27.428
X20.48
X20.503 Y27.438
X20.505 Y27.439
X20.524 Y27.454
X20.526 Y27.456
X20.541 Y27.475
X20.542 Y27.477
X20.551 Y27.499
Y27.502
X20.554 Y27.526
Y27.528
X20.55 Y27.552
Y27.554
X20.54 Y27.577
X20.538 Y27.579
X20.502 Y27.623
X20.5 Y27.626
X15.593 Y32.533
X15.562 Y32.566
X15.548 Y32.582
X15.537 Y32.599
X15.522 Y32.623
X15.509 Y32.646
X15.499 Y32.67
X15.492 Y32.688
X15.486 Y32.705
X15.481 Y32.723
X15.477 Y32.741
X15.474 Y32.758
X15.471 Y32.776
X15.47 Y32.794
X15.469 Y32.812
Y32.829
X15.47 Y32.847
X15.471 Y32.865
X15.474 Y32.882
X15.477 Y32.9
X15.481 Y32.918
X15.486 Y32.936
X15.492 Y32.953
X15.498 Y32.97
X15.505 Y32.986
X15.513 Y33.003
X15.522 Y33.019
X15.525 Y33.024
X15.536 Y33.042
X15.549 Y33.06
X15.563 Y33.077
X15.579 Y33.095
X15.593 Y33.109
X15.658 Y33.166
X16.089 Y33.541
X16.151 Y33.591
X16.605 Y33.945
X16.656 Y33.983
X17.152 Y34.328
X17.216 Y34.371
X17.719 Y34.682
X17.789 Y34.723
X18.311 Y35.008
X18.356 Y35.031
X18.923 Y35.303
X18.994 Y35.333
X19.49 Y35.539
X19.561 Y35.568
X19.582 Y35.575
X20.128 Y35.767
X20.186 Y35.788
X20.199 Y35.792
X20.765 Y35.958
X20.836 Y35.978
X20.907 Y35.995
X21.403 Y36.111
X21.474 Y36.128
X21.545 Y36.141
X22.112 Y36.242
X22.183 Y36.253
X22.75 Y36.322
X22.82 Y36.33
X23.458 Y36.374
X23.494 Y36.375
X23.511
X23.529 Y36.373
X23.547 Y36.371
X23.564 Y36.368
X23.582 Y36.365
X23.6 Y36.36
X23.617 Y36.355
X23.644 Y36.344
X23.671 Y36.332
X23.688 Y36.322
X23.706 Y36.311
X23.724 Y36.299
X23.742 Y36.285
X23.743 Y36.284
X23.762 Y36.267
X23.781 Y36.248
X23.796 Y36.231
X23.81 Y36.213
X23.812 Y36.209
X23.824 Y36.193
X23.834 Y36.176
X23.843 Y36.159
X23.851 Y36.142
X23.859 Y36.124
X23.865 Y36.107
X23.871 Y36.089
X23.875 Y36.071
X23.88 Y36.049
X23.883 Y36.027
X23.886 Y36.
Y35.929
Y29.029
Y29.027
X23.892 Y28.967
X23.893 Y28.965
X23.901 Y28.943
X23.902 Y28.941
X23.917 Y28.921
X23.918 Y28.919
X23.938 Y28.904
X23.939 Y28.903
X23.963 Y28.893
X23.965
X23.99 Y28.889
X24.014 Y28.893
X24.016
X24.04 Y28.903
X24.042 Y28.904
X24.061 Y28.919
X24.062 Y28.921
X24.077 Y28.941
X24.078 Y28.943
X24.087 Y28.965
Y28.967
X24.093 Y29.027
Y29.029
Y35.929
X24.094 Y36.
X24.096 Y36.027
X24.099 Y36.049
X24.104 Y36.071
X24.108 Y36.089
X24.114 Y36.107
X24.121 Y36.124
X24.128 Y36.142
X24.136 Y36.159
X24.145 Y36.176
X24.155 Y36.193
X24.167 Y36.209
X24.169 Y36.213
X24.183 Y36.231
X24.198 Y36.248
X24.217 Y36.267
X24.236 Y36.284
X24.238 Y36.285
X24.255 Y36.299
X24.273 Y36.311
X24.291 Y36.322
X24.308 Y36.332
X24.335 Y36.344
X24.362 Y36.355
X24.379 Y36.36
X24.397 Y36.365
X24.415 Y36.368
X24.432 Y36.371
X24.45 Y36.373
X24.468 Y36.375
X24.486
X24.521 Y36.374
X25.159 Y36.33
X25.23 Y36.322
X25.797 Y36.253
X25.867 Y36.242
X26.434 Y36.141
X26.505 Y36.128
X26.746 Y36.071
X27.072 Y35.995
X27.143 Y35.978
X27.214 Y35.958
X27.781 Y35.792
X27.794 Y35.788
X27.851 Y35.767
X28.397 Y35.575
X28.418 Y35.568
X28.489 Y35.539
X28.985 Y35.333
X29.056 Y35.303
X29.623 Y35.031
X29.668 Y35.008
X30.19 Y34.723
X30.261 Y34.682
X30.763 Y34.371
X30.828 Y34.328
X31.324 Y33.983
X31.374 Y33.945
X31.828 Y33.591
X31.89 Y33.541
X32.321 Y33.166
X32.386 Y33.109
X32.4 Y33.095
X32.416 Y33.077
X32.43 Y33.06
X32.443 Y33.042
X32.454 Y33.024
X32.457 Y33.019
X32.466 Y33.003
X32.474 Y32.986
X32.481 Y32.97
X32.488 Y32.953
X32.493 Y32.936
X32.498 Y32.918
X32.502 Y32.9
X32.506 Y32.882
X32.508 Y32.865
X32.51 Y32.847
Y32.829
Y32.812
Y32.794
X32.508 Y32.776
X32.506 Y32.758
X32.502 Y32.741
X32.498 Y32.723
X32.493 Y32.705
X32.487 Y32.688
X32.481 Y32.67
X32.47 Y32.646
X32.457 Y32.623
X32.443 Y32.599
X32.431 Y32.582
X32.418 Y32.566
X32.386 Y32.533
X27.479 Y27.626
X27.477 Y27.623
X27.441 Y27.579
X27.44 Y27.577
X27.429 Y27.554
Y27.552
X27.425 Y27.528
Y27.526
X27.428 Y27.502
Y27.499
X27.438 Y27.477
Y27.475
X27.453 Y27.456
X27.455 Y27.454
X27.474 Y27.439
X27.476 Y27.438
X27.499 Y27.428
X27.502
X27.526 Y27.425
X27.528
X27.552 Y27.429
X27.554
X27.577 Y27.44
X27.579 Y27.441
X27.623 Y27.477
X27.626 Y27.479
X32.533 Y32.386
X32.566 Y32.418
X32.582 Y32.431
X32.599 Y32.443
X32.623 Y32.457
X32.646 Y32.47
X32.67 Y32.481
X32.688 Y32.487
X32.705 Y32.493
X32.723 Y32.498
X32.741 Y32.502
X32.758 Y32.506
X32.776 Y32.508
X32.794 Y32.51
X32.812
X32.829
X32.847
X32.865 Y32.508
X32.882 Y32.506
X32.9 Y32.502
X32.918 Y32.498
X32.936 Y32.493
X32.953 Y32.488
X32.97 Y32.481
X32.986 Y32.474
X33.003 Y32.466
X33.019 Y32.457
X33.024 Y32.454
X33.042 Y32.443
X33.06 Y32.43
X33.077 Y32.416
X33.095 Y32.4
X33.109 Y32.386
X33.166 Y32.321
X33.541 Y31.89
X33.591 Y31.828
X33.945 Y31.374
X33.983 Y31.324
X34.328 Y30.828
X34.371 Y30.763
X34.682 Y30.261
X34.723 Y30.19
X35.008 Y29.668
X35.031 Y29.623
X35.303 Y29.056
X35.333 Y28.985
X35.539 Y28.489
X35.568 Y28.418
X35.575 Y28.397
X35.767 Y27.851
X35.788 Y27.794
X35.792 Y27.781
X35.958 Y27.214
X35.978 Y27.143
X35.995 Y27.072
X36.111 Y26.576
X36.128 Y26.505
X36.141 Y26.434
X36.242 Y25.867
X36.253 Y25.797
X36.322 Y25.23
X36.33 Y25.159
X36.374 Y24.521
X36.375 Y24.486
Y24.468
X36.373 Y24.45
X36.371 Y24.432
X36.368 Y24.415
X36.365 Y24.397
X36.36 Y24.379
X36.355 Y24.362
X36.344 Y24.335
X36.332 Y24.308
X36.322 Y24.291
X36.311 Y24.273
X36.299 Y24.255
X36.285 Y24.238
X36.284 Y24.236
X36.267 Y24.217
X36.248 Y24.198
X36.231 Y24.183
X36.213 Y24.169
X36.209 Y24.167
X36.193 Y24.155
X36.176 Y24.145
X36.159 Y24.136
X36.142 Y24.128
X36.124 Y24.121
X36.107 Y24.114
X36.089 Y24.108
X36.071 Y24.104
X36.049 Y24.099
X36.027 Y24.096
X36. Y24.094
X35.929 Y24.093
X29.029
X29.027
X28.967 Y24.087
X28.965
X28.943 Y24.078
X28.941 Y24.077
X28.921 Y24.062
X28.919 Y24.061
X28.904 Y24.042
X28.903 Y24.04
X28.893 Y24.016
Y24.014
X28.889 Y23.99
X28.893 Y23.965
Y23.963
X28.903 Y23.939
X28.904 Y23.938
X28.919 Y23.918
X28.921 Y23.917
X28.941 Y23.902
X28.943 Y23.901
X28.965 Y23.893
X28.967 Y23.892
X29.027 Y23.886
X29.029
X35.929
X36.
X36.027 Y23.883
X36.049 Y23.88
X36.071 Y23.875
X36.089 Y23.871
X36.107 Y23.865
X36.124 Y23.859
X36.142 Y23.851
X36.159 Y23.843
X36.176 Y23.834
X36.193 Y23.824
X36.209 Y23.812
X36.213 Y23.81
X36.231 Y23.796
X36.248 Y23.781
X36.267 Y23.762
X36.284 Y23.743
X36.285 Y23.742
X36.299 Y23.724
X36.311 Y23.706
X36.322 Y23.688
X36.332 Y23.671
X36.344 Y23.644
X36.355 Y23.617
X36.36 Y23.6
X36.365 Y23.582
X36.368 Y23.564
X36.371 Y23.547
X36.373 Y23.529
X36.375 Y23.511
Y23.494
X36.374 Y23.458
X36.33 Y22.82
X36.322 Y22.75
X36.253 Y22.183
X36.242 Y22.112
X36.141 Y21.545
X36.128 Y21.474
X36.071 Y21.233
X35.995 Y20.907
X35.978 Y20.836
X35.958 Y20.765
X35.792 Y20.199
X35.788 Y20.186
X35.767 Y20.128
X35.575 Y19.582
X35.568 Y19.561
X35.539 Y19.49
X35.333 Y18.994
X35.303 Y18.923
X35.031 Y18.356
X35.008 Y18.311
X34.723 Y17.789
X34.682 Y17.719
X34.371 Y17.216
X34.328 Y17.152
X33.983 Y16.656
X33.945 Y16.605
X33.591 Y16.151
X33.541 Y16.089
X33.166 Y15.658
X33.109 Y15.593
X33.095 Y15.579
X33.077 Y15.563
X33.06 Y15.549
X33.042 Y15.536
X33.024 Y15.525
X33.019 Y15.522
X33.003 Y15.513
X32.986 Y15.505
X32.97 Y15.498
X32.953 Y15.492
X32.936 Y15.486
X32.918 Y15.481
X32.9 Y15.477
X32.882 Y15.474
X32.865 Y15.471
X32.847 Y15.47
X32.829 Y15.469
X32.812
X32.794 Y15.47
X32.776 Y15.471
X32.758 Y15.474
X32.741 Y15.477
X32.723 Y15.481
X32.705 Y15.486
X32.688 Y15.492
X32.67 Y15.499
X32.646 Y15.509
X32.623 Y15.522
X32.599 Y15.537
X32.582 Y15.548
X32.566 Y15.562
X32.533 Y15.593
X27.626 Y20.5
X27.623 Y20.502
X27.579 Y20.538
X27.577 Y20.54
X27.554 Y20.55
X27.552
X27.528 Y20.554
X27.526
X27.502 Y20.551
X27.499
X27.476 Y20.541
X27.474 Y20.54
X27.455 Y20.525
X27.453 Y20.523
X27.438 Y20.504
Y20.502
X27.428 Y20.48
Y20.477
X27.425 Y20.454
Y20.451
X27.429 Y20.427
Y20.425
X27.44 Y20.402
X27.441 Y20.4
X27.477 Y20.356
X27.479 Y20.354
X32.386 Y15.446
X32.418 Y15.413
X32.431 Y15.397
X32.443 Y15.38
X32.457 Y15.357
X32.47 Y15.333
X32.481 Y15.309
X32.487 Y15.292
X32.493 Y15.274
X32.498 Y15.256
X32.502 Y15.238
X32.506 Y15.221
X32.508 Y15.203
X32.51 Y15.185
Y15.168
Y15.15
Y15.132
X32.508 Y15.114
X32.506 Y15.097
X32.502 Y15.079
X32.498 Y15.061
X32.493 Y15.044
X32.488 Y15.026
X32.481 Y15.009
X32.474 Y14.993
X32.466 Y14.977
X32.457 Y14.96
X32.454 Y14.955
X32.443 Y14.937
X32.43 Y14.92
X32.416 Y14.902
X32.4 Y14.884
X32.386 Y14.87
X32.321 Y14.813
X31.89 Y14.438
X31.828 Y14.388
X31.374 Y14.034
X31.324 Y13.996
X30.828 Y13.651
X30.763 Y13.609
X30.261 Y13.297
X30.19 Y13.257
X29.668 Y12.971
X29.623 Y12.948
X29.056 Y12.676
X28.985 Y12.646
X28.489 Y12.441
X28.418 Y12.411
X28.397 Y12.404
X27.851 Y12.212
X27.794 Y12.191
X27.781 Y12.187
X27.214 Y12.022
X27.143 Y12.001
X27.072 Y11.984
X26.576 Y11.868
X26.505 Y11.851
X26.434 Y11.838
X25.867 Y11.737
X25.797 Y11.727
X25.23 Y11.657
X25.159 Y11.649
X24.521 Y11.605
X24.486 Y11.604
X24.468
X24.45 Y11.606
X24.432 Y11.608
X24.415 Y11.611
X24.397 Y11.615
X24.379 Y11.619
X24.362 Y11.625
X24.335 Y11.635
X24.308 Y11.647
X24.291 Y11.657
X24.273 Y11.668
X24.255 Y11.68
X24.238 Y11.694
X24.236 Y11.695
X24.217 Y11.712
X24.198 Y11.731
X24.183 Y11.749
X24.169 Y11.766
X24.167 Y11.77
X24.155 Y11.787
X24.145 Y11.803
X24.136 Y11.82
X24.128 Y11.837
X24.121 Y11.855
X24.114 Y11.873
X24.108 Y11.89
X24.104 Y11.908
X24.099 Y11.93
X24.096 Y11.952
X24.094 Y11.979
X24.093 Y12.05
Y18.95
Y18.952
X24.087 Y19.012
Y19.014
X24.078 Y19.036
X24.077 Y19.038
X24.062 Y19.059
X24.061 Y19.06
X24.042 Y19.075
X24.04 Y19.076
X24.016 Y19.086
X24.014
X23.99 Y19.09
X23.965 Y19.086
X23.963
X23.939 Y19.076
X23.938 Y19.075
X23.918 Y19.06
X23.917 Y19.059
X23.902 Y19.038
X23.901 Y19.036
X23.893 Y19.014
X23.892 Y19.012
X23.886 Y18.952
Y18.95
Y12.05
Y11.979
X23.883 Y11.952
X23.88 Y11.93
X23.875 Y11.908
X23.871 Y11.89
X23.865 Y11.873
X23.859 Y11.855
X23.851 Y11.837
X23.843 Y11.82
X23.834 Y11.803
X23.824 Y11.787
X23.812 Y11.77
X23.81 Y11.766
X23.796 Y11.749
X23.781 Y11.731
X23.762 Y11.712
X23.743 Y11.695
X23.742 Y11.694
X23.724 Y11.68
X23.706 Y11.668
X23.688 Y11.657
X23.671 Y11.647
X23.644 Y11.635
X23.617 Y11.625
X23.6 Y11.619
X23.582 Y11.615
X23.564 Y11.611
X23.547 Y11.608
X23.529 Y11.606
X23.511 Y11.604
X23.494
X23.458 Y11.605
X22.82 Y11.649
X22.75 Y11.657
X22.183 Y11.727
X22.112 Y11.737
X21.545 Y11.838
X21.474 Y11.851
X21.233 Y11.908
X20.907 Y11.984
X20.836 Y12.001
X20.765 Y12.022
X20.199 Y12.187
X20.186 Y12.191
X20.128 Y12.212
X19.582 Y12.404
X19.561 Y12.411
X19.49 Y12.441
X18.994 Y12.646
X18.923 Y12.676
X18.356 Y12.948
X18.311 Y12.971
X17.789 Y13.257
X17.719 Y13.297
X17.216 Y13.609
X17.152 Y13.651
X16.656 Y13.996
X16.605 Y14.034
X16.151 Y14.388
X16.089 Y14.438
X15.658 Y14.813
X15.593 Y14.87
X15.579 Y14.884
X15.563 Y14.902
X15.549 Y14.92
X15.536 Y14.937
X15.525 Y14.955
X15.522 Y14.96
X15.513 Y14.977
X15.505 Y14.993
X15.498 Y15.009
X15.492 Y15.026
X15.486 Y15.044
X15.481 Y15.061
X15.477 Y15.079
X15.474 Y15.097
X15.471 Y15.114
X15.47 Y15.132
X15.469 Y15.15
Y15.168
X15.47 Y15.185
X15.471 Y15.203
X15.474 Y15.221
X15.477 Y15.238
X15.481 Y15.256
X15.486 Y15.274
X15.492 Y15.292
X15.499 Y15.309
X15.509 Y15.333
X15.522 Y15.357
X15.537 Y15.38
X15.548 Y15.397
X15.562 Y15.413
X15.593 Y15.446
X20.5 Y20.354
X20.502 Y20.356
X20.538 Y20.4
X20.54 Y20.402
X20.55 Y20.425
Y20.427
X20.554 Y20.451
Y20.454
